(Window catch v2)
G21
G90
(When using Fusion 360 for Personal Use, the feedrate of)
(rapid moves is reduced to match the feedrate of cutting)
(moves, which can increase machining time. Unrestricted rapid)
(moves are available with a Fusion 360 Subscription.)

(Adaptive1)
G0 X-0.263 Y-2.767 Z5.000
G1 X-0.263 Y-2.767 Z5.000 F1000
G1 X-0.263 Y-2.767 Z-1.600 F1000
G1 X-0.263 Y-2.767 Z-1.800 F1000
G1 X-0.262 Y-2.760 Z-1.852 F1000
G1 X-0.257 Y-2.741 Z-1.900 F1000
G1 X-0.249 Y-2.710 Z-1.941 F1000
G1 X-0.238 Y-2.670 Z-1.973 F1000
G1 X-0.226 Y-2.624 Z-1.993 F1000
G1 X-0.214 Y-2.573 Z-2.000 F1000
G3 X0.010 Y-1.019 Z-2.000 I-7.063 J1.809 F1000
G1 X0.010 Y-0.892 Z-2.000 F1000
G1 X-0.091 Y-0.395 Z-2.000 F1000
G1 X-0.142 Y0.110 Z-2.000 F1000
G1 X-0.167 Y0.617 Z-2.000 F1000
G1 X-0.179 Y1.124 Z-2.000 F1000
G1 X-0.185 Y1.631 Z-2.000 F1000
G1 X-0.187 Y2.138 Z-2.000 F1000
G1 X-0.189 Y3.153 Z-2.000 F1000
G1 X-0.190 Y18.879 Z-2.000 F1000
G1 X-0.190 Y29.025 Z-2.000 F1000
G1 X-0.182 Y29.151 Z-2.000 F1000
G1 X-0.103 Y29.392 Z-2.000 F1000
G1 X-0.039 Y29.502 Z-2.000 F1000
G1 X0.140 Y29.681 Z-2.000 F1000
G1 X0.581 Y29.931 Z-2.000 F1000
G1 X1.072 Y30.062 Z-2.000 F1000
G1 X1.575 Y30.127 Z-2.000 F1000
G1 X2.081 Y30.160 Z-2.000 F1000
G1 X2.588 Y30.175 Z-2.000 F1000
G1 X3.095 Y30.183 Z-2.000 F1000
G1 X3.603 Y30.187 Z-2.000 F1000
G1 X4.617 Y30.189 Z-2.000 F1000
G1 X10.197 Y30.190 Z-2.000 F1000
G1 X19.075 Y30.190 Z-2.000 F1000
G1 X19.199 Y30.163 Z-2.000 F1000
G1 X19.426 Y30.051 Z-2.000 F1000
G1 X19.622 Y29.890 Z-2.000 F1000
G1 X19.899 Y29.465 Z-2.000 F1000
G1 X20.045 Y28.979 Z-2.000 F1000
G1 X20.119 Y28.477 Z-2.000 F1000
G1 X20.156 Y27.971 Z-2.000 F1000
G1 X20.173 Y27.465 Z-2.000 F1000
G1 X20.182 Y26.957 Z-2.000 F1000
G1 X20.186 Y26.450 Z-2.000 F1000
G1 X20.188 Y25.943 Z-2.000 F1000
G1 X20.190 Y24.421 Z-2.000 F1000
G1 X20.190 Y0.959 Z-2.000 F1000
G1 X20.175 Y0.833 Z-2.000 F1000
G1 X20.082 Y0.597 Z-2.000 F1000
G1 X20.016 Y0.489 Z-2.000 F1000
G1 X19.833 Y0.313 Z-2.000 F1000
G1 X19.390 Y0.066 Z-2.000 F1000
G1 X18.900 Y-0.063 Z-2.000 F1000
G1 X18.397 Y-0.128 Z-2.000 F1000
G1 X17.890 Y-0.160 Z-2.000 F1000
G1 X17.383 Y-0.175 Z-2.000 F1000
G1 X16.876 Y-0.183 Z-2.000 F1000
G1 X16.369 Y-0.187 Z-2.000 F1000
G1 X15.354 Y-0.189 Z-2.000 F1000
G1 X9.774 Y-0.190 Z-2.000 F1000
G1 X1.784 Y-0.190 Z-2.000 F1000
G1 X1.285 Y-0.100 Z-2.000 F1000
G1 X1.136 Y-0.014 Z-2.000 F1000
G1 X1.018 Y0.033 Z-2.000 F1000
G1 X0.916 Y0.108 Z-2.000 F1000
G1 X0.836 Y0.207 Z-2.000 F1000
G1 X0.731 Y0.438 Z-2.000 F1000
G1 X0.633 Y0.935 Z-2.000 F1000
G1 X0.619 Y1.442 Z-2.000 F1000
G1 X0.614 Y1.950 Z-2.000 F1000
G1 X0.612 Y2.457 Z-2.000 F1000
G1 X0.610 Y3.979 Z-2.000 F1000
G1 X0.610 Y28.582 Z-2.000 F1000
G1 X0.624 Y28.708 Z-2.000 F1000
G1 X0.669 Y28.827 Z-2.000 F1000
G1 X0.743 Y28.930 Z-2.000 F1000
G1 X0.938 Y29.093 Z-2.000 F1000
G1 X1.405 Y29.290 Z-2.000 F1000
G1 X1.909 Y29.345 Z-2.000 F1000
G1 X2.416 Y29.369 Z-2.000 F1000
G1 X2.923 Y29.380 Z-2.000 F1000
G1 X3.431 Y29.385 Z-2.000 F1000
G1 X3.938 Y29.388 Z-2.000 F1000
G1 X4.952 Y29.389 Z-2.000 F1000
G1 X18.522 Y29.390 Z-2.000 F1000
G1 X18.649 Y29.379 Z-2.000 F1000
G1 X18.768 Y29.337 Z-2.000 F1000
G1 X18.875 Y29.268 Z-2.000 F1000
G1 X19.051 Y29.086 Z-2.000 F1000
G1 X19.279 Y28.633 Z-2.000 F1000
G1 X19.340 Y28.129 Z-2.000 F1000
G1 X19.366 Y27.623 Z-2.000 F1000
G1 X19.379 Y27.115 Z-2.000 F1000
G1 X19.385 Y26.608 Z-2.000 F1000
G1 X19.387 Y26.101 Z-2.000 F1000
G1 X19.389 Y25.594 Z-2.000 F1000
G1 X19.390 Y23.057 Z-2.000 F1000
G1 X19.390 Y1.498 Z-2.000 F1000
G1 X19.385 Y1.371 Z-2.000 F1000
G1 X19.351 Y1.249 Z-2.000 F1000
G1 X19.287 Y1.139 Z-2.000 F1000
G1 X19.111 Y0.957 Z-2.000 F1000
G1 X18.886 Y0.839 Z-2.000 F1000
G1 X18.402 Y0.686 Z-2.000 F1000
G1 X17.897 Y0.644 Z-2.000 F1000
G1 X17.390 Y0.626 Z-2.000 F1000
G1 X16.883 Y0.618 Z-2.000 F1000
G1 X16.375 Y0.614 Z-2.000 F1000
G1 X15.361 Y0.611 Z-2.000 F1000
G1 X10.795 Y0.610 Z-2.000 F1000
G1 X2.171 Y0.610 Z-2.000 F1000
G1 X1.919 Y0.630 Z-2.000 F1000
G1 X1.797 Y0.664 Z-2.000 F1000
G1 X1.687 Y0.729 Z-2.000 F1000
G1 X1.598 Y0.818 Z-2.000 F1000
G1 X1.533 Y0.928 Z-2.000 F1000
G1 X1.395 Y1.416 Z-2.000 F1000
G1 X1.404 Y1.923 Z-2.000 F1000
G1 X1.408 Y2.430 Z-2.000 F1000
G1 X1.410 Y3.445 Z-2.000 F1000
G1 X1.410 Y8.518 Z-2.000 F1000
G1 X1.410 Y28.048 Z-2.000 F1000
G1 X1.442 Y28.171 Z-2.000 F1000
G1 X1.504 Y28.282 Z-2.000 F1000
G1 X1.591 Y28.373 Z-2.000 F1000
G1 X1.699 Y28.440 Z-2.000 F1000
G1 X2.184 Y28.590 Z-2.000 F1000
G1 X2.691 Y28.586 Z-2.000 F1000
G1 X3.706 Y28.587 Z-2.000 F1000
G1 X5.228 Y28.590 Z-2.000 F1000
G1 X18.037 Y28.590 Z-2.000 F1000
G1 X18.159 Y28.558 Z-2.000 F1000
G1 X18.270 Y28.496 Z-2.000 F1000
G1 X18.362 Y28.409 Z-2.000 F1000
G1 X18.428 Y28.301 Z-2.000 F1000
G1 X18.578 Y27.816 Z-2.000 F1000
G1 X18.580 Y27.309 Z-2.000 F1000
G1 X18.586 Y26.294 Z-2.000 F1000
G1 X18.589 Y25.280 Z-2.000 F1000
G1 X18.590 Y20.714 Z-2.000 F1000
G1 X18.590 Y15.134 Z-2.000 F1000
G1 X18.590 Y1.944 Z-2.000 F1000
G1 X18.558 Y1.822 Z-2.000 F1000
G1 X18.496 Y1.711 Z-2.000 F1000
G1 X18.409 Y1.619 Z-2.000 F1000
G1 X18.301 Y1.553 Z-2.000 F1000
G1 X17.816 Y1.403 Z-2.000 F1000
G1 X17.309 Y1.411 Z-2.000 F1000
G1 X16.801 Y1.412 Z-2.000 F1000
G1 X13.758 Y1.410 Z-2.000 F1000
G1 X2.724 Y1.410 Z-2.000 F1000
G1 X2.597 Y1.411 Z-2.000 F1000
G1 X2.475 Y1.443 Z-2.000 F1000
G1 X2.364 Y1.506 Z-2.000 F1000
G1 X2.273 Y1.594 Z-2.000 F1000
G1 X2.207 Y1.702 Z-2.000 F1000
G1 X2.170 Y1.823 Z-2.000 F1000
G1 X2.150 Y2.330 Z-2.000 F1000
G1 X2.181 Y2.836 Z-2.000 F1000
G1 X2.196 Y3.344 Z-2.000 F1000
G1 X2.203 Y3.851 Z-2.000 F1000
G1 X2.207 Y4.358 Z-2.000 F1000
G1 X2.209 Y5.373 Z-2.000 F1000
G1 X2.210 Y11.967 Z-2.000 F1000
G1 X2.210 Y22.113 Z-2.000 F1000
G1 X2.210 Y27.440 Z-2.000 F1000
G1 X2.242 Y27.562 Z-2.000 F1000
G1 X2.304 Y27.673 Z-2.000 F1000
G1 X2.391 Y27.765 Z-2.000 F1000
G1 X2.499 Y27.831 Z-2.000 F1000
G1 X2.620 Y27.869 Z-2.000 F1000
G1 X3.127 Y27.892 Z-2.000 F1000
G1 X3.632 Y27.837 Z-2.000 F1000
G1 X4.138 Y27.812 Z-2.000 F1000
G1 X4.645 Y27.800 Z-2.000 F1000
G1 X5.153 Y27.795 Z-2.000 F1000
G1 X5.660 Y27.792 Z-2.000 F1000
G1 X6.674 Y27.791 Z-2.000 F1000
G1 X17.454 Y27.790 Z-2.000 F1000
G1 X17.577 Y27.758 Z-2.000 F1000
G1 X17.688 Y27.696 Z-2.000 F1000
G1 X17.779 Y27.609 Z-2.000 F1000
G1 X17.846 Y27.501 Z-2.000 F1000
G1 X17.884 Y27.380 Z-2.000 F1000
G1 X17.906 Y26.873 Z-2.000 F1000
G1 X17.844 Y26.369 Z-2.000 F1000
G1 X17.815 Y25.863 Z-2.000 F1000
G1 X17.802 Y25.356 Z-2.000 F1000
G1 X17.796 Y24.849 Z-2.000 F1000
G1 X17.793 Y24.341 Z-2.000 F1000
G1 X17.791 Y23.327 Z-2.000 F1000
G1 X17.790 Y2.528 Z-2.000 F1000
G1 X17.758 Y2.405 Z-2.000 F1000
G1 X17.696 Y2.294 Z-2.000 F1000
G1 X17.609 Y2.203 Z-2.000 F1000
G1 X17.501 Y2.136 Z-2.000 F1000
G1 X17.380 Y2.099 Z-2.000 F1000
G1 X16.873 Y2.076 Z-2.000 F1000
G1 X16.371 Y2.147 Z-2.000 F1000
G1 X15.864 Y2.180 Z-2.000 F1000
G1 X15.357 Y2.196 Z-2.000 F1000
G1 X14.850 Y2.203 Z-2.000 F1000
G1 X14.343 Y2.207 Z-2.000 F1000
G1 X13.836 Y2.209 Z-2.000 F1000
G1 X11.806 Y2.210 Z-2.000 F1000
G1 X3.309 Y2.210 Z-2.000 F1000
G1 X3.187 Y2.242 Z-2.000 F1000
G1 X3.076 Y2.304 Z-2.000 F1000
G1 X2.984 Y2.391 Z-2.000 F1000
G1 X2.918 Y2.499 Z-2.000 F1000
G1 X2.880 Y2.620 Z-2.000 F1000
G1 X2.857 Y3.127 Z-2.000 F1000
G1 X2.935 Y3.628 Z-2.000 F1000
G1 X2.973 Y4.134 Z-2.000 F1000
G1 X2.992 Y4.641 Z-2.000 F1000
G1 X3.001 Y5.149 Z-2.000 F1000
G1 X3.005 Y5.656 Z-2.000 F1000
G1 X3.008 Y6.163 Z-2.000 F1000
G1 X3.010 Y7.685 Z-2.000 F1000
G1 X3.010 Y26.835 Z-2.000 F1000
G1 X3.042 Y26.958 Z-2.000 F1000
G1 X3.104 Y27.068 Z-2.000 F1000
G1 X3.191 Y27.160 Z-2.000 F1000
G1 X3.299 Y27.227 Z-2.000 F1000
G1 X3.420 Y27.264 Z-2.000 F1000
G1 X3.674 Y27.276 Z-2.000 F1000
G1 X3.928 Y27.199 Z-2.000 F1000
G1 X4.294 Y27.121 Z-2.000 F1000
G1 X4.797 Y27.054 Z-2.000 F1000
G1 X5.303 Y27.022 Z-2.000 F1000
G1 X5.810 Y27.006 Z-2.000 F1000
G1 X6.317 Y26.998 Z-2.000 F1000
G1 X6.825 Y26.994 Z-2.000 F1000
G1 X7.839 Y26.991 Z-2.000 F1000
G1 X11.898 Y26.990 Z-2.000 F1000
G1 X16.844 Y26.990 Z-2.000 F1000
G1 X16.966 Y26.958 Z-2.000 F1000
G1 X17.077 Y26.896 Z-2.000 F1000
G1 X17.169 Y26.809 Z-2.000 F1000
G1 X17.235 Y26.701 Z-2.000 F1000
G1 X17.273 Y26.580 Z-2.000 F1000
G1 X17.284 Y26.326 Z-2.000 F1000
G1 X17.208 Y26.078 Z-2.000 F1000
G1 X17.129 Y25.724 Z-2.000 F1000
G1 X17.059 Y25.222 Z-2.000 F1000
G1 X17.024 Y24.716 Z-2.000 F1000
G1 X17.007 Y24.209 Z-2.000 F1000
G1 X16.998 Y23.702 Z-2.000 F1000
G1 X16.994 Y23.194 Z-2.000 F1000
G1 X16.992 Y22.687 Z-2.000 F1000
G1 X16.990 Y21.165 Z-2.000 F1000
G1 X16.990 Y3.157 Z-2.000 F1000
G1 X16.958 Y3.034 Z-2.000 F1000
G1 X16.896 Y2.923 Z-2.000 F1000
G1 X16.809 Y2.831 Z-2.000 F1000
G1 X16.701 Y2.765 Z-2.000 F1000
G1 X16.580 Y2.727 Z-2.000 F1000
G1 X16.326 Y2.716 Z-2.000 F1000
G1 X16.073 Y2.793 Z-2.000 F1000
G1 X15.711 Y2.873 Z-2.000 F1000
G1 X15.208 Y2.942 Z-2.000 F1000
G1 X14.702 Y2.976 Z-2.000 F1000
G1 X14.195 Y2.993 Z-2.000 F1000
G1 X13.688 Y3.001 Z-2.000 F1000
G1 X13.180 Y3.006 Z-2.000 F1000
G1 X12.673 Y3.008 Z-2.000 F1000
G1 X11.151 Y3.010 Z-2.000 F1000
G1 X3.922 Y3.010 Z-2.000 F1000
G1 X3.800 Y3.042 Z-2.000 F1000
G1 X3.689 Y3.104 Z-2.000 F1000
G1 X3.597 Y3.191 Z-2.000 F1000
G1 X3.531 Y3.299 Z-2.000 F1000
G1 X3.493 Y3.420 Z-2.000 F1000
G1 X3.488 Y3.547 Z-2.000 F1000
G1 X3.593 Y4.043 Z-2.000 F1000
G1 X3.673 Y4.409 Z-2.000 F1000
G1 X3.741 Y4.912 Z-2.000 F1000
G1 X3.775 Y5.418 Z-2.000 F1000
G1 X3.792 Y5.925 Z-2.000 F1000
G1 X3.801 Y6.432 Z-2.000 F1000
G1 X3.805 Y6.940 Z-2.000 F1000
G1 X3.808 Y7.447 Z-2.000 F1000
G1 X3.810 Y8.969 Z-2.000 F1000
G1 X3.810 Y16.071 Z-2.000 F1000
G1 X3.810 Y26.217 Z-2.000 F1000
G1 X3.842 Y26.339 Z-2.000 F1000
G1 X3.904 Y26.450 Z-2.000 F1000
G1 X3.991 Y26.542 Z-2.000 F1000
G1 X4.099 Y26.608 Z-2.000 F1000
G1 X4.220 Y26.646 Z-2.000 F1000
G1 X4.347 Y26.651 Z-2.000 F1000
G1 X4.843 Y26.546 Z-2.000 F1000
G1 X5.039 Y26.471 Z-2.000 F1000
G1 X5.302 Y26.394 Z-2.000 F1000
G1 X5.682 Y26.315 Z-2.000 F1000
G1 X6.186 Y26.252 Z-2.000 F1000
G1 X6.692 Y26.221 Z-2.000 F1000
G1 X7.199 Y26.206 Z-2.000 F1000
G1 X7.706 Y26.198 Z-2.000 F1000
G1 X8.214 Y26.194 Z-2.000 F1000
G1 X9.228 Y26.191 Z-2.000 F1000
G1 X13.287 Y26.190 Z-2.000 F1000
G1 X16.203 Y26.190 Z-2.000 F1000
G1 X16.326 Y26.158 Z-2.000 F1000
G1 X16.437 Y26.096 Z-2.000 F1000
G1 X16.529 Y26.009 Z-2.000 F1000
G1 X16.595 Y25.901 Z-2.000 F1000
G1 X16.633 Y25.780 Z-2.000 F1000
G1 X16.638 Y25.653 Z-2.000 F1000
G1 X16.533 Y25.157 Z-2.000 F1000
G1 X16.457 Y24.950 Z-2.000 F1000
G1 X16.379 Y24.665 Z-2.000 F1000
G1 X16.300 Y24.249 Z-2.000 F1000
G1 X16.245 Y23.745 Z-2.000 F1000
G1 X16.218 Y23.238 Z-2.000 F1000
G1 X16.204 Y22.731 Z-2.000 F1000
G1 X16.197 Y22.224 Z-2.000 F1000
G1 X16.194 Y21.717 Z-2.000 F1000
G1 X16.191 Y20.702 Z-2.000 F1000
G1 X16.190 Y16.137 Z-2.000 F1000
G1 X16.190 Y3.835 Z-2.000 F1000
G1 X16.158 Y3.712 Z-2.000 F1000
G1 X16.096 Y3.601 Z-2.000 F1000
G1 X16.009 Y3.510 Z-2.000 F1000
G1 X15.901 Y3.443 Z-2.000 F1000
G1 X15.780 Y3.406 Z-2.000 F1000
G1 X15.653 Y3.400 Z-2.000 F1000
G1 X15.157 Y3.505 Z-2.000 F1000
G1 X14.911 Y3.583 Z-2.000 F1000
G1 X14.560 Y3.663 Z-2.000 F1000
G1 X14.058 Y3.736 Z-2.000 F1000
G1 X13.552 Y3.773 Z-2.000 F1000
G1 X13.045 Y3.791 Z-2.000 F1000
G1 X12.538 Y3.800 Z-2.000 F1000
G1 X12.031 Y3.805 Z-2.000 F1000
G1 X11.523 Y3.808 Z-2.000 F1000
G1 X10.509 Y3.809 Z-2.000 F1000
G1 X4.675 Y3.810 Z-2.000 F1000
G1 X4.552 Y3.842 Z-2.000 F1000
G1 X4.442 Y3.904 Z-2.000 F1000
G1 X4.350 Y3.991 Z-2.000 F1000
G1 X4.283 Y4.099 Z-2.000 F1000
G1 X4.246 Y4.220 Z-2.000 F1000
G1 X4.240 Y4.347 Z-2.000 F1000
G1 X4.346 Y4.843 Z-2.000 F1000
G1 X4.428 Y5.158 Z-2.000 F1000
G1 X4.511 Y5.626 Z-2.000 F1000
G1 X4.559 Y6.131 Z-2.000 F1000
G1 X4.583 Y6.638 Z-2.000 F1000
G1 X4.596 Y7.145 Z-2.000 F1000
G1 X4.603 Y7.652 Z-2.000 F1000
G1 X4.606 Y8.160 Z-2.000 F1000
G1 X4.609 Y9.174 Z-2.000 F1000
G1 X4.610 Y13.233 Z-2.000 F1000
G1 X4.610 Y25.534 Z-2.000 F1000
G1 X4.642 Y25.657 Z-2.000 F1000
G1 X4.704 Y25.768 Z-2.000 F1000
G1 X4.791 Y25.859 Z-2.000 F1000
G1 X4.899 Y25.926 Z-2.000 F1000
G1 X5.020 Y25.963 Z-2.000 F1000
G1 X5.147 Y25.969 Z-2.000 F1000
G1 X5.643 Y25.864 Z-2.000 F1000
G1 X5.717 Y25.825 Z-2.000 F1000
G1 X5.882 Y25.749 Z-2.000 F1000
G1 X6.090 Y25.671 Z-2.000 F1000
G1 X6.375 Y25.591 Z-2.000 F1000
G1 X6.788 Y25.509 Z-2.000 F1000
G1 X7.291 Y25.451 Z-2.000 F1000
G1 X7.798 Y25.421 Z-2.000 F1000
G1 X8.305 Y25.406 Z-2.000 F1000
G1 X8.812 Y25.398 Z-2.000 F1000
G1 X9.319 Y25.394 Z-2.000 F1000
G1 X10.334 Y25.391 Z-2.000 F1000
G1 X13.885 Y25.390 Z-2.000 F1000
G1 X15.534 Y25.390 Z-2.000 F1000
G1 X15.656 Y25.358 Z-2.000 F1000
G1 X15.767 Y25.296 Z-2.000 F1000
G1 X15.859 Y25.209 Z-2.000 F1000
G1 X15.926 Y25.101 Z-2.000 F1000
G1 X15.963 Y24.980 Z-2.000 F1000
G1 X15.969 Y24.853 Z-2.000 F1000
G1 X15.863 Y24.357 Z-2.000 F1000
G1 X15.826 Y24.285 Z-2.000 F1000
G1 X15.748 Y24.119 Z-2.000 F1000
G1 X15.672 Y23.914 Z-2.000 F1000
G1 X15.591 Y23.630 Z-2.000 F1000
G1 X15.510 Y23.223 Z-2.000 F1000
G1 X15.451 Y22.719 Z-2.000 F1000
G1 X15.421 Y22.213 Z-2.000 F1000
G1 X15.406 Y21.706 Z-2.000 F1000
G1 X15.398 Y21.198 Z-2.000 F1000
G1 X15.394 Y20.691 Z-2.000 F1000
G1 X15.391 Y19.677 Z-2.000 F1000
G1 X15.390 Y16.126 Z-2.000 F1000
G1 X15.390 Y15.618 Z-2.000 F1000
G1 X15.390 Y4.585 Z-2.000 F1000
G1 X15.358 Y4.462 Z-2.000 F1000
G1 X15.296 Y4.351 Z-2.000 F1000
G1 X15.209 Y4.260 Z-2.000 F1000
G1 X15.101 Y4.193 Z-2.000 F1000
G1 X14.980 Y4.156 Z-2.000 F1000
G1 X14.853 Y4.150 Z-2.000 F1000
G1 X14.357 Y4.255 Z-2.000 F1000
G1 X14.135 Y4.335 Z-2.000 F1000
G1 X13.831 Y4.418 Z-2.000 F1000
G1 X13.385 Y4.501 Z-2.000 F1000
G1 X12.880 Y4.553 Z-2.000 F1000
G1 X12.374 Y4.581 Z-2.000 F1000
G1 X11.867 Y4.595 Z-2.000 F1000
G1 X11.360 Y4.602 Z-2.000 F1000
G1 X10.852 Y4.606 Z-2.000 F1000
G1 X9.838 Y4.609 Z-2.000 F1000
G1 X6.287 Y4.610 Z-2.000 F1000
G1 X5.399 Y4.610 Z-2.000 F1000
G1 X5.276 Y4.642 Z-2.000 F1000
G1 X5.165 Y4.704 Z-2.000 F1000
G1 X5.074 Y4.791 Z-2.000 F1000
G1 X5.007 Y4.899 Z-2.000 F1000
G1 X4.970 Y5.020 Z-2.000 F1000
G1 X4.964 Y5.147 Z-2.000 F1000
G1 X5.070 Y5.643 Z-2.000 F1000
G1 X5.149 Y5.875 Z-2.000 F1000
G1 X5.232 Y6.196 Z-2.000 F1000
G1 X5.314 Y6.673 Z-2.000 F1000
G1 X5.361 Y7.178 Z-2.000 F1000
G1 X5.384 Y7.685 Z-2.000 F1000
G1 X5.397 Y8.192 Z-2.000 F1000
G1 X5.403 Y8.699 Z-2.000 F1000
G1 X5.406 Y9.206 Z-2.000 F1000
G1 X5.409 Y10.221 Z-2.000 F1000
G1 X5.410 Y14.279 Z-2.000 F1000
G1 X5.410 Y24.805 Z-2.000 F1000
G1 X5.442 Y24.928 Z-2.000 F1000
G1 X5.504 Y25.039 Z-2.000 F1000
G1 X5.591 Y25.131 Z-2.000 F1000
G1 X5.699 Y25.197 Z-2.000 F1000
G1 X5.820 Y25.235 Z-2.000 F1000
G1 X5.947 Y25.240 Z-2.000 F1000
G1 X6.443 Y25.135 Z-2.000 F1000
G1 X6.572 Y25.057 Z-2.000 F1000
G1 X6.729 Y24.980 Z-2.000 F1000
G1 X6.935 Y24.898 Z-2.000 F1000
G1 X7.199 Y24.817 Z-2.000 F1000
G1 X7.578 Y24.734 Z-2.000 F1000
G1 X8.080 Y24.665 Z-2.000 F1000
G1 X8.586 Y24.629 Z-2.000 F1000
G1 X9.093 Y24.610 Z-2.000 F1000
G1 X9.600 Y24.601 Z-2.000 F1000
G1 X10.108 Y24.596 Z-2.000 F1000
G1 X10.615 Y24.593 Z-2.000 F1000
G1 X11.629 Y24.591 Z-2.000 F1000
G1 X13.659 Y24.590 Z-2.000 F1000
G1 X14.800 Y24.590 Z-2.000 F1000
G1 X14.923 Y24.558 Z-2.000 F1000
G1 X15.033 Y24.496 Z-2.000 F1000
G1 X15.125 Y24.409 Z-2.000 F1000
G1 X15.192 Y24.301 Z-2.000 F1000
G1 X15.229 Y24.180 Z-2.000 F1000
G1 X15.235 Y24.053 Z-2.000 F1000
G1 X15.129 Y23.557 Z-2.000 F1000
G1 X15.053 Y23.428 Z-2.000 F1000
G1 X14.975 Y23.268 Z-2.000 F1000
G1 X14.893 Y23.059 Z-2.000 F1000
G1 X14.812 Y22.788 Z-2.000 F1000
G1 X14.728 Y22.399 Z-2.000 F1000
G1 X14.662 Y21.897 Z-2.000 F1000
G1 X14.628 Y21.390 Z-2.000 F1000
G1 X14.610 Y20.883 Z-2.000 F1000
G1 X14.600 Y20.376 Z-2.000 F1000
G1 X14.595 Y19.869 Z-2.000 F1000
G1 X14.593 Y19.362 Z-2.000 F1000
G1 X14.591 Y18.347 Z-2.000 F1000
G1 X14.590 Y11.245 Z-2.000 F1000
G1 X14.590 Y5.285 Z-2.000 F1000
G1 X14.558 Y5.162 Z-2.000 F1000
G1 X14.496 Y5.051 Z-2.000 F1000
G1 X14.409 Y4.959 Z-2.000 F1000
G1 X14.301 Y4.893 Z-2.000 F1000
G1 X14.180 Y4.855 Z-2.000 F1000
G1 X14.053 Y4.850 Z-2.000 F1000
G1 X13.557 Y4.955 Z-2.000 F1000
G1 X13.477 Y4.994 Z-2.000 F1000
G1 X13.293 Y5.073 Z-2.000 F1000
G1 X13.062 Y5.152 Z-2.000 F1000
G1 X12.737 Y5.235 Z-2.000 F1000
G1 X12.249 Y5.317 Z-2.000 F1000
G1 X11.744 Y5.362 Z-2.000 F1000
G1 X11.237 Y5.385 Z-2.000 F1000
G1 X10.730 Y5.397 Z-2.000 F1000
G1 X10.222 Y5.403 Z-2.000 F1000
G1 X9.715 Y5.406 Z-2.000 F1000
G1 X8.701 Y5.409 Z-2.000 F1000
G1 X6.037 Y5.410 Z-2.000 F1000
G1 X5.915 Y5.442 Z-2.000 F1000
G1 X5.804 Y5.504 Z-2.000 F1000
G1 X5.712 Y5.591 Z-2.000 F1000
G1 X5.646 Y5.699 Z-2.000 F1000
G1 X5.608 Y5.820 Z-2.000 F1000
G1 X5.602 Y5.947 Z-2.000 F1000
G1 X5.708 Y6.443 Z-2.000 F1000
G1 X5.782 Y6.574 Z-2.000 F1000
G1 X5.858 Y6.742 Z-2.000 F1000
G1 X5.936 Y6.954 Z-2.000 F1000
G1 X6.017 Y7.249 Z-2.000 F1000
G1 X6.098 Y7.675 Z-2.000 F1000
G1 X6.152 Y8.179 Z-2.000 F1000
G1 X6.180 Y8.686 Z-2.000 F1000
G1 X6.195 Y9.193 Z-2.000 F1000
G1 X6.202 Y9.700 Z-2.000 F1000
G1 X6.206 Y10.207 Z-2.000 F1000
G1 X6.209 Y11.222 Z-2.000 F1000
G1 X6.210 Y14.773 Z-2.000 F1000
G1 X6.210 Y24.158 Z-2.000 F1000
G1 X6.242 Y24.280 Z-2.000 F1000
G1 X6.304 Y24.391 Z-2.000 F1000
G1 X6.391 Y24.483 Z-2.000 F1000
G1 X6.499 Y24.549 Z-2.000 F1000
G1 X6.620 Y24.587 Z-2.000 F1000
G1 X6.747 Y24.593 Z-2.000 F1000
G1 X6.871 Y24.566 Z-2.000 F1000
G1 X7.325 Y24.339 Z-2.000 F1000
G1 X7.434 Y24.274 Z-2.000 F1000
G1 X7.590 Y24.195 Z-2.000 F1000
G1 X7.788 Y24.114 Z-2.000 F1000
G1 X8.047 Y24.031 Z-2.000 F1000
G1 X8.408 Y23.947 Z-2.000 F1000
G1 X8.910 Y23.873 Z-2.000 F1000
G1 X9.416 Y23.834 Z-2.000 F1000
G1 X9.923 Y23.813 Z-2.000 F1000
G1 X10.430 Y23.802 Z-2.000 F1000
G1 X10.937 Y23.796 Z-2.000 F1000
G1 X11.444 Y23.793 Z-2.000 F1000
G1 X12.459 Y23.791 Z-2.000 F1000
G1 X14.108 Y23.790 Z-2.000 F1000
G1 X14.230 Y23.758 Z-2.000 F1000
G1 X14.341 Y23.696 Z-2.000 F1000
G1 X14.433 Y23.609 Z-2.000 F1000
G1 X14.499 Y23.501 Z-2.000 F1000
G1 X14.537 Y23.380 Z-2.000 F1000
G1 X14.542 Y23.253 Z-2.000 F1000
G1 X14.516 Y23.129 Z-2.000 F1000
G1 X14.289 Y22.675 Z-2.000 F1000
G1 X14.211 Y22.525 Z-2.000 F1000
G1 X14.127 Y22.325 Z-2.000 F1000
G1 X14.045 Y22.076 Z-2.000 F1000
G1 X13.959 Y21.724 Z-2.000 F1000
G1 X13.879 Y21.223 Z-2.000 F1000
G1 X13.838 Y20.717 Z-2.000 F1000
G1 X13.815 Y20.211 Z-2.000 F1000
G1 X13.803 Y19.703 Z-2.000 F1000
G1 X13.797 Y19.196 Z-2.000 F1000
G1 X13.794 Y18.689 Z-2.000 F1000
G1 X13.791 Y17.674 Z-2.000 F1000
G1 X13.790 Y14.123 Z-2.000 F1000
G1 X13.790 Y6.007 Z-2.000 F1000
G1 X13.758 Y5.884 Z-2.000 F1000
G1 X13.696 Y5.773 Z-2.000 F1000
G1 X13.609 Y5.682 Z-2.000 F1000
G1 X13.501 Y5.615 Z-2.000 F1000
G1 X13.380 Y5.578 Z-2.000 F1000
G1 X13.253 Y5.572 Z-2.000 F1000
G1 X12.757 Y5.677 Z-2.000 F1000
G1 X12.689 Y5.717 Z-2.000 F1000
G1 X12.542 Y5.794 Z-2.000 F1000
G1 X12.360 Y5.872 Z-2.000 F1000
G1 X12.115 Y5.955 Z-2.000 F1000
G1 X11.785 Y6.037 Z-2.000 F1000
G1 X11.284 Y6.120 Z-2.000 F1000
G1 X10.779 Y6.163 Z-2.000 F1000
G1 X10.272 Y6.185 Z-2.000 F1000
G1 X9.765 Y6.197 Z-2.000 F1000
G1 X9.258 Y6.203 Z-2.000 F1000
G1 X8.750 Y6.206 Z-2.000 F1000
G1 X7.736 Y6.209 Z-2.000 F1000
G1 X6.721 Y6.210 Z-2.000 F1000
G1 X6.599 Y6.242 Z-2.000 F1000
G1 X6.488 Y6.304 Z-2.000 F1000
G1 X6.396 Y6.391 Z-2.000 F1000
G1 X6.330 Y6.499 Z-2.000 F1000
G1 X6.292 Y6.620 Z-2.000 F1000
G1 X6.286 Y6.747 Z-2.000 F1000
G1 X6.313 Y6.871 Z-2.000 F1000
G1 X6.540 Y7.325 Z-2.000 F1000
G1 X6.617 Y7.481 Z-2.000 F1000
G1 X6.700 Y7.692 Z-2.000 F1000
G1 X6.782 Y7.964 Z-2.000 F1000
G1 X6.867 Y8.354 Z-2.000 F1000
G1 X6.935 Y8.857 Z-2.000 F1000
G1 X6.970 Y9.363 Z-2.000 F1000
G1 X6.989 Y9.870 Z-2.000 F1000
G1 X6.999 Y10.377 Z-2.000 F1000
G1 X7.004 Y10.884 Z-2.000 F1000
G1 X7.007 Y11.391 Z-2.000 F1000
G1 X7.009 Y12.406 Z-2.000 F1000
G1 X7.010 Y17.986 Z-2.000 F1000
G1 X7.010 Y23.439 Z-2.000 F1000
G1 X7.042 Y23.562 Z-2.000 F1000
G1 X7.104 Y23.673 Z-2.000 F1000
G1 X7.191 Y23.764 Z-2.000 F1000
G1 X7.299 Y23.831 Z-2.000 F1000
G1 X7.420 Y23.869 Z-2.000 F1000
G1 X7.547 Y23.874 Z-2.000 F1000
G1 X7.671 Y23.848 Z-2.000 F1000
G1 X8.125 Y23.621 Z-2.000 F1000
G1 X8.246 Y23.532 Z-2.000 F1000
G1 X8.375 Y23.456 Z-2.000 F1000
G1 X8.543 Y23.375 Z-2.000 F1000
G1 X8.748 Y23.296 Z-2.000 F1000
G1 X9.030 Y23.211 Z-2.000 F1000
G1 X9.426 Y23.127 Z-2.000 F1000
G1 X9.929 Y23.062 Z-2.000 F1000
G1 X10.435 Y23.028 Z-2.000 F1000
G1 X10.942 Y23.010 Z-2.000 F1000
G1 X11.449 Y23.001 Z-2.000 F1000
G1 X11.956 Y22.996 Z-2.000 F1000
G1 X13.098 Y22.991 Z-2.000 F1000
G1 X13.351 Y22.990 Z-2.000 F1000
G1 X13.474 Y22.958 Z-2.000 F1000
G1 X13.585 Y22.897 Z-2.000 F1000
G1 X13.676 Y22.809 Z-2.000 F1000
G1 X13.743 Y22.701 Z-2.000 F1000
G1 X13.780 Y22.580 Z-2.000 F1000
G1 X13.786 Y22.453 Z-2.000 F1000
G1 X13.759 Y22.329 Z-2.000 F1000
G1 X13.532 Y21.875 Z-2.000 F1000
G1 X13.455 Y21.742 Z-2.000 F1000
G1 X13.373 Y21.569 Z-2.000 F1000
G1 X13.292 Y21.358 Z-2.000 F1000
G1 X13.207 Y21.067 Z-2.000 F1000
G1 X13.122 Y20.654 Z-2.000 F1000
G1 X13.060 Y20.150 Z-2.000 F1000
G1 X13.027 Y19.644 Z-2.000 F1000
G1 X13.010 Y19.137 Z-2.000 F1000
G1 X13.001 Y18.630 Z-2.000 F1000
G1 X12.996 Y18.123 Z-2.000 F1000
G1 X12.993 Y17.615 Z-2.000 F1000
G1 X12.991 Y16.601 Z-2.000 F1000
G1 X12.990 Y11.021 Z-2.000 F1000
G1 X12.990 Y6.709 Z-2.000 F1000
G1 X12.958 Y6.586 Z-2.000 F1000
G1 X12.896 Y6.475 Z-2.000 F1000
G1 X12.809 Y6.383 Z-2.000 F1000
G1 X12.701 Y6.317 Z-2.000 F1000
G1 X12.580 Y6.279 Z-2.000 F1000
G1 X12.453 Y6.274 Z-2.000 F1000
G1 X12.329 Y6.300 Z-2.000 F1000
G1 X11.875 Y6.527 Z-2.000 F1000
G1 X11.706 Y6.611 Z-2.000 F1000
G1 X11.503 Y6.692 Z-2.000 F1000
G1 X11.223 Y6.777 Z-2.000 F1000
G1 X10.843 Y6.862 Z-2.000 F1000
G1 X10.340 Y6.931 Z-2.000 F1000
G1 X9.834 Y6.968 Z-2.000 F1000
G1 X9.327 Y6.988 Z-2.000 F1000
G1 X8.820 Y6.998 Z-2.000 F1000
G1 X7.806 Y7.008 Z-2.000 F1000
G1 X7.425 Y7.009 Z-2.000 F1000
G1 X7.302 Y7.041 Z-2.000 F1000
G1 X7.192 Y7.103 Z-2.000 F1000
G1 X7.100 Y7.191 Z-2.000 F1000
G1 X7.034 Y7.299 Z-2.000 F1000
G1 X6.996 Y7.420 Z-2.000 F1000
G1 X6.991 Y7.547 Z-2.000 F1000
G1 X7.018 Y7.671 Z-2.000 F1000
G1 X7.245 Y8.124 Z-2.000 F1000
G1 X7.325 Y8.251 Z-2.000 F1000
G1 X7.404 Y8.405 Z-2.000 F1000
G1 X7.483 Y8.597 Z-2.000 F1000
G1 X7.566 Y8.851 Z-2.000 F1000
G1 X7.649 Y9.203 Z-2.000 F1000
G1 X7.725 Y9.704 Z-2.000 F1000
G1 X7.765 Y10.210 Z-2.000 F1000
G1 X7.786 Y10.717 Z-2.000 F1000
G1 X7.798 Y11.224 Z-2.000 F1000
G1 X7.803 Y11.731 Z-2.000 F1000
G1 X7.807 Y12.238 Z-2.000 F1000
G1 X7.809 Y13.253 Z-2.000 F1000
G1 X7.810 Y17.311 Z-2.000 F1000
G1 X7.810 Y22.764 Z-2.000 F1000
G1 X7.842 Y22.887 Z-2.000 F1000
G1 X7.904 Y22.998 Z-2.000 F1000
G1 X7.991 Y23.090 Z-2.000 F1000
G1 X8.099 Y23.156 Z-2.000 F1000
G1 X8.220 Y23.194 Z-2.000 F1000
G1 X8.347 Y23.199 Z-2.000 F1000
G1 X8.471 Y23.173 Z-2.000 F1000
G1 X8.925 Y22.946 Z-2.000 F1000
G1 X9.031 Y22.840 Z-2.000 F1000
G1 X9.150 Y22.749 Z-2.000 F1000
G1 X9.278 Y22.670 Z-2.000 F1000
G1 X9.434 Y22.591 Z-2.000 F1000
G1 X9.633 Y22.510 Z-2.000 F1000
G1 X9.894 Y22.428 Z-2.000 F1000
G1 X10.260 Y22.344 Z-2.000 F1000
G1 X10.762 Y22.271 Z-2.000 F1000
G1 X11.268 Y22.233 Z-2.000 F1000
G1 X11.775 Y22.213 Z-2.000 F1000
G1 X12.282 Y22.196 Z-2.000 F1000
G1 X12.662 Y22.193 Z-2.000 F1000
G1 X12.785 Y22.160 Z-2.000 F1000
G1 X12.895 Y22.098 Z-2.000 F1000
G1 X12.986 Y22.010 Z-2.000 F1000
G1 X13.052 Y21.902 Z-2.000 F1000
G1 X13.089 Y21.780 Z-2.000 F1000
G1 X13.094 Y21.654 Z-2.000 F1000
G1 X13.067 Y21.530 Z-2.000 F1000
G1 X12.837 Y21.077 Z-2.000 F1000
G1 X12.747 Y20.958 Z-2.000 F1000
G1 X12.668 Y20.830 Z-2.000 F1000
G1 X12.590 Y20.674 Z-2.000 F1000
G1 X12.508 Y20.472 Z-2.000 F1000
G1 X12.426 Y20.209 Z-2.000 F1000
G1 X12.342 Y19.839 Z-2.000 F1000
G1 X12.270 Y19.337 Z-2.000 F1000
G1 X12.233 Y18.831 Z-2.000 F1000
G1 X12.213 Y18.324 Z-2.000 F1000
G1 X12.202 Y17.817 Z-2.000 F1000
G1 X12.196 Y17.309 Z-2.000 F1000
G1 X12.193 Y16.802 Z-2.000 F1000
G1 X12.191 Y15.787 Z-2.000 F1000
G1 X12.190 Y11.729 Z-2.000 F1000
G1 X12.190 Y7.417 Z-2.000 F1000
G1 X12.158 Y7.295 Z-2.000 F1000
G1 X12.096 Y7.184 Z-2.000 F1000
G1 X12.009 Y7.092 Z-2.000 F1000
G1 X11.901 Y7.025 Z-2.000 F1000
G1 X11.780 Y6.988 Z-2.000 F1000
G1 X11.653 Y6.982 Z-2.000 F1000
G1 X11.529 Y7.009 Z-2.000 F1000
G1 X11.075 Y7.236 Z-2.000 F1000
G1 X10.949 Y7.317 Z-2.000 F1000
G1 X10.797 Y7.396 Z-2.000 F1000
G1 X10.608 Y7.475 Z-2.000 F1000
G1 X10.359 Y7.558 Z-2.000 F1000
G1 X10.015 Y7.641 Z-2.000 F1000
G1 X9.514 Y7.721 Z-2.000 F1000
G1 X9.009 Y7.763 Z-2.000 F1000
G1 X8.503 Y7.798 Z-2.000 F1000
G1 X8.122 Y7.803 Z-2.000 F1000
G1 X8.000 Y7.837 Z-2.000 F1000
G1 X7.890 Y7.900 Z-2.000 F1000
G1 X7.799 Y7.989 Z-2.000 F1000
G1 X7.734 Y8.097 Z-2.000 F1000
G1 X7.698 Y8.219 Z-2.000 F1000
G1 X7.694 Y8.346 Z-2.000 F1000
G1 X7.722 Y8.469 Z-2.000 F1000
G1 X7.954 Y8.920 Z-2.000 F1000
G1 X8.047 Y9.038 Z-2.000 F1000
G1 X8.126 Y9.166 Z-2.000 F1000
G1 X8.207 Y9.325 Z-2.000 F1000
G1 X8.285 Y9.516 Z-2.000 F1000
G1 X8.369 Y9.778 Z-2.000 F1000
G1 X8.452 Y10.134 Z-2.000 F1000
G1 X8.527 Y10.635 Z-2.000 F1000
G1 X8.566 Y11.141 Z-2.000 F1000
G1 X8.587 Y11.648 Z-2.000 F1000
G1 X8.598 Y12.155 Z-2.000 F1000
G1 X8.603 Y12.662 Z-2.000 F1000
G1 X8.607 Y13.170 Z-2.000 F1000
G1 X8.609 Y14.184 Z-2.000 F1000
G1 X8.610 Y18.243 Z-2.000 F1000
G1 X8.610 Y22.047 Z-2.000 F1000
G1 X8.601 Y22.099 Z-1.967 F1000
G1 X8.580 Y22.146 Z-1.933 F1000
G1 X8.547 Y22.187 Z-1.900 F1000
G1 X8.504 Y22.217 Z-1.867 F1000
G1 X8.455 Y22.235 Z-1.833 F1000
G1 X8.406 Y22.253 Z-1.800 F1000
G2 X8.363 Y22.576 Z-1.800 I0.094 J0.177 F1000
G1 X8.387 Y22.599 Z-1.800 F1000
G1 X9.451 Y23.601 Z-1.800 F1000
G2 X9.740 Y23.586 Z-1.800 I0.137 J-0.146 F1000
G2 X9.712 Y23.298 Z-1.800 I-0.152 J-0.130 F1000
G3 X9.360 Y22.982 Z-1.800 I2.253 J-2.867 F1000
G3 X9.150 Y22.749 Z-2.000 I2.604 J-2.551 F1000
G1 X8.996 Y22.547 Z-2.000 F1000
G1 X9.015 Y22.399 Z-2.000 F1000
G1 X9.072 Y22.260 Z-2.000 F1000
G1 X9.183 Y22.159 Z-2.000 F1000
G1 X9.316 Y22.060 Z-2.000 F1000
G1 X9.463 Y21.967 Z-2.000 F1000
G1 X9.653 Y21.869 Z-2.000 F1000
G1 X9.893 Y21.767 Z-2.000 F1000
G1 X10.182 Y21.671 Z-2.000 F1000
G1 X10.570 Y21.576 Z-2.000 F1000
G1 X11.071 Y21.495 Z-2.000 F1000
G1 X11.574 Y21.427 Z-2.000 F1000
G1 X11.827 Y21.415 Z-2.000 F1000
G1 X11.954 Y21.411 Z-2.000 F1000
G1 X12.075 Y21.374 Z-2.000 F1000
G1 X12.184 Y21.309 Z-2.000 F1000
G1 X12.272 Y21.218 Z-2.000 F1000
G1 X12.335 Y21.108 Z-2.000 F1000
G1 X12.368 Y20.985 Z-2.000 F1000
G1 X12.369 Y20.858 Z-2.000 F1000
G1 X12.338 Y20.735 Z-2.000 F1000
G1 X12.095 Y20.290 Z-2.000 F1000
G1 X11.998 Y20.176 Z-2.000 F1000
G1 X11.914 Y20.052 Z-2.000 F1000
G1 X11.836 Y19.912 Z-2.000 F1000
G1 X11.753 Y19.728 Z-2.000 F1000
G1 X11.672 Y19.503 Z-2.000 F1000
G1 X11.587 Y19.189 Z-2.000 F1000
G1 X11.502 Y18.732 Z-2.000 F1000
G1 X11.449 Y18.227 Z-2.000 F1000
G1 X11.422 Y17.720 Z-2.000 F1000
G1 X11.407 Y17.213 Z-2.000 F1000
G1 X11.399 Y16.706 Z-2.000 F1000
G1 X11.395 Y16.199 Z-2.000 F1000
G1 X11.393 Y15.692 Z-2.000 F1000
G1 X11.390 Y14.170 Z-2.000 F1000
G1 X11.390 Y8.209 Z-2.000 F1000
G1 X11.358 Y8.086 Z-2.000 F1000
G1 X11.296 Y7.976 Z-2.000 F1000
G1 X11.209 Y7.884 Z-2.000 F1000
G1 X11.101 Y7.817 Z-2.000 F1000
G1 X10.980 Y7.780 Z-2.000 F1000
G1 X10.853 Y7.774 Z-2.000 F1000
G1 X10.729 Y7.801 Z-2.000 F1000
G1 X10.275 Y8.028 Z-2.000 F1000
G1 X10.148 Y8.108 Z-2.000 F1000
G1 X9.991 Y8.189 Z-2.000 F1000
G1 X9.524 Y8.386 Z-2.000 F1000
G1 X9.189 Y8.495 Z-2.000 F1000
G1 X9.064 Y8.516 Z-2.000 F1000
G1 X8.938 Y8.534 Z-2.000 F1000
G1 X8.821 Y8.583 Z-2.000 F1000
G1 X8.720 Y8.660 Z-2.000 F1000
G1 X8.642 Y8.760 Z-2.000 F1000
G1 X8.591 Y8.876 Z-2.000 F1000
G1 X8.572 Y9.001 Z-2.000 F1000
G1 X8.584 Y9.127 Z-2.000 F1000
G1 X8.759 Y9.604 Z-2.000 F1000
G1 X8.845 Y9.726 Z-2.000 F1000
G1 X8.925 Y9.863 Z-2.000 F1000
G1 X9.008 Y10.034 Z-2.000 F1000
G1 X9.096 Y10.261 Z-2.000 F1000
G1 X9.181 Y10.548 Z-2.000 F1000
G1 X9.269 Y10.960 Z-2.000 F1000
G1 X9.334 Y11.463 Z-2.000 F1000
G1 X9.369 Y11.969 Z-2.000 F1000
G1 X9.388 Y12.476 Z-2.000 F1000
G1 X9.398 Y12.984 Z-2.000 F1000
G1 X9.403 Y13.491 Z-2.000 F1000
G1 X9.406 Y13.998 Z-2.000 F1000
G1 X9.409 Y15.013 Z-2.000 F1000
G1 X9.410 Y19.071 Z-2.000 F1000
G1 X9.410 Y20.973 Z-2.000 F1000
G1 X9.442 Y21.096 Z-2.000 F1000
G1 X9.504 Y21.207 Z-2.000 F1000
G1 X9.591 Y21.298 Z-2.000 F1000
G1 X9.699 Y21.365 Z-2.000 F1000
G1 X9.820 Y21.403 Z-2.000 F1000
G1 X9.947 Y21.408 Z-2.000 F1000
G1 X10.071 Y21.382 Z-2.000 F1000
G1 X10.525 Y21.155 Z-2.000 F1000
G1 X10.630 Y21.048 Z-2.000 F1000
G1 X10.774 Y20.941 Z-2.000 F1000
G1 X10.978 Y20.831 Z-2.000 F1000
G1 X11.097 Y20.788 Z-2.000 F1000
G1 X11.219 Y20.752 Z-2.000 F1000
G1 X11.328 Y20.687 Z-2.000 F1000
G1 X11.416 Y20.596 Z-2.000 F1000
G1 X11.480 Y20.487 Z-2.000 F1000
G1 X11.513 Y20.364 Z-2.000 F1000
G1 X11.515 Y20.237 Z-2.000 F1000
G1 X11.485 Y20.114 Z-2.000 F1000
G1 X11.243 Y19.668 Z-2.000 F1000
G1 X11.158 Y19.542 Z-2.000 F1000
G1 X11.075 Y19.395 Z-2.000 F1000
G1 X10.983 Y19.197 Z-2.000 F1000
G1 X10.896 Y18.961 Z-2.000 F1000
G1 X10.805 Y18.636 Z-2.000 F1000
G1 X10.708 Y18.138 Z-2.000 F1000
G1 X10.628 Y17.637 Z-2.000 F1000
G1 X10.607 Y17.130 Z-2.000 F1000
G1 X10.599 Y16.623 Z-2.000 F1000
G1 X10.595 Y16.115 Z-2.000 F1000
G1 X10.592 Y15.608 Z-2.000 F1000
G1 X10.590 Y14.086 Z-2.000 F1000
G1 X10.590 Y8.887 Z-2.000 F1000
G1 X10.558 Y8.764 Z-2.000 F1000
G1 X10.496 Y8.653 Z-2.000 F1000
G1 X10.409 Y8.561 Z-2.000 F1000
G1 X10.301 Y8.495 Z-2.000 F1000
G1 X10.180 Y8.457 Z-2.000 F1000
G1 X10.053 Y8.452 Z-2.000 F1000
G1 X9.929 Y8.478 Z-2.000 F1000
G1 X9.815 Y8.535 Z-2.000 F1000
G1 X9.720 Y8.618 Z-2.000 F1000
G1 X9.649 Y8.723 Z-2.000 F1000
G1 X9.596 Y8.839 Z-2.000 F1000
G1 X9.575 Y8.964 Z-2.000 F1000
G1 X9.619 Y9.469 Z-2.000 F1000
G1 X9.823 Y9.933 Z-2.000 F1000
G1 X9.967 Y10.420 Z-2.000 F1000
G1 X10.065 Y10.918 Z-2.000 F1000
G1 X10.129 Y11.421 Z-2.000 F1000
G1 X10.165 Y11.927 Z-2.000 F1000
G1 X10.171 Y12.054 Z-2.000 F1000
G3 X9.771 Y12.056 Z-2.000 I-0.200 J0.001 F1000
G3 X9.828 Y11.914 Z-2.000 I0.200 J-0.001 F1000
G1 X9.865 Y11.877 Z-1.993 F1000
G1 X9.899 Y11.843 Z-1.973 F1000
G1 X9.928 Y11.813 Z-1.941 F1000
G1 X9.950 Y11.791 Z-1.900 F1000
G1 X9.964 Y11.777 Z-1.852 F1000
G1 X9.969 Y11.772 Z-1.800 F1000
G1 X9.969 Y11.772 Z5.000 F1000
G1 X8.439 Y20.754 Z5.000 F1000
G1 X8.439 Y20.754 Z-1.600 F1000
G1 X8.439 Y20.754 Z-1.800 F1000
G1 X8.445 Y20.753 Z-1.852 F1000
G1 X8.465 Y20.748 Z-1.900 F1000
G1 X8.496 Y20.740 Z-1.941 F1000
G1 X8.536 Y20.729 Z-1.973 F1000
G1 X8.582 Y20.717 Z-1.993 F1000
G1 X8.633 Y20.705 Z-2.000 F1000
G3 X9.410 Y20.593 Z-2.000 I0.905 J3.532 F1000
G1 X9.537 Y20.593 Z-2.000 F1000
G1 X9.786 Y20.545 Z-2.000 F1000
G1 X10.245 Y20.328 Z-2.000 F1000
G1 X10.357 Y20.269 Z-2.000 F1000
G1 X10.451 Y20.184 Z-2.000 F1000
G1 X10.521 Y20.078 Z-2.000 F1000
G1 X10.561 Y19.958 Z-2.000 F1000
G1 X10.571 Y19.832 Z-2.000 F1000
G1 X10.548 Y19.707 Z-2.000 F1000
G1 X10.333 Y19.247 Z-2.000 F1000
G1 X10.206 Y19.046 Z-2.000 F1000
G1 X10.060 Y18.720 Z-2.000 F1000
G1 X9.921 Y18.232 Z-2.000 F1000
G1 X9.881 Y17.982 Z-2.000 F1000
G1 X9.867 Y17.856 Z-2.000 F1000
G1 X9.855 Y17.730 Z-2.000 F1000
G3 X10.247 Y17.664 Z-2.000 I0.200 J-0.012 F1000
G1 X10.254 Y17.700 Z-1.996 F1000
G1 X10.254 Y17.718 Z-1.992 F1000
G1 X10.239 Y17.765 Z-1.969 F1000
G1 X10.226 Y17.805 Z-1.934 F1000
G1 X10.217 Y17.835 Z-1.888 F1000
G1 X10.207 Y17.846 Z-1.845 F1000
G1 X10.204 Y17.851 Z-1.800 F1000
G1 X10.204 Y17.851 Z5.000 F1000
G1 X-0.263 Y-2.767 Z5.000 F1000
G1 X-0.263 Y-2.767 Z-3.600 F1000
G1 X-0.263 Y-2.767 Z-3.800 F1000
G1 X-0.262 Y-2.760 Z-3.852 F1000
G1 X-0.257 Y-2.741 Z-3.900 F1000
G1 X-0.249 Y-2.710 Z-3.941 F1000
G1 X-0.238 Y-2.670 Z-3.973 F1000
G1 X-0.226 Y-2.624 Z-3.993 F1000
G1 X-0.214 Y-2.573 Z-4.000 F1000
G3 X0.010 Y-1.019 Z-4.000 I-7.063 J1.809 F1000
G1 X0.010 Y-0.892 Z-4.000 F1000
G1 X-0.091 Y-0.395 Z-4.000 F1000
G1 X-0.142 Y0.110 Z-4.000 F1000
G1 X-0.167 Y0.617 Z-4.000 F1000
G1 X-0.179 Y1.124 Z-4.000 F1000
G1 X-0.185 Y1.631 Z-4.000 F1000
G1 X-0.187 Y2.138 Z-4.000 F1000
G1 X-0.189 Y3.153 Z-4.000 F1000
G1 X-0.190 Y18.879 Z-4.000 F1000
G1 X-0.190 Y29.025 Z-4.000 F1000
G1 X-0.182 Y29.151 Z-4.000 F1000
G1 X-0.103 Y29.392 Z-4.000 F1000
G1 X-0.039 Y29.502 Z-4.000 F1000
G1 X0.140 Y29.681 Z-4.000 F1000
G1 X0.581 Y29.931 Z-4.000 F1000
G1 X1.072 Y30.062 Z-4.000 F1000
G1 X1.575 Y30.127 Z-4.000 F1000
G1 X2.081 Y30.160 Z-4.000 F1000
G1 X2.588 Y30.175 Z-4.000 F1000
G1 X3.095 Y30.183 Z-4.000 F1000
G1 X3.603 Y30.187 Z-4.000 F1000
G1 X4.617 Y30.189 Z-4.000 F1000
G1 X10.197 Y30.190 Z-4.000 F1000
G1 X19.075 Y30.190 Z-4.000 F1000
G1 X19.199 Y30.163 Z-4.000 F1000
G1 X19.426 Y30.051 Z-4.000 F1000
G1 X19.622 Y29.890 Z-4.000 F1000
G1 X19.899 Y29.465 Z-4.000 F1000
G1 X20.045 Y28.979 Z-4.000 F1000
G1 X20.119 Y28.477 Z-4.000 F1000
G1 X20.156 Y27.971 Z-4.000 F1000
G1 X20.173 Y27.465 Z-4.000 F1000
G1 X20.182 Y26.957 Z-4.000 F1000
G1 X20.186 Y26.450 Z-4.000 F1000
G1 X20.188 Y25.943 Z-4.000 F1000
G1 X20.190 Y24.421 Z-4.000 F1000
G1 X20.190 Y0.959 Z-4.000 F1000
G1 X20.175 Y0.833 Z-4.000 F1000
G1 X20.082 Y0.597 Z-4.000 F1000
G1 X20.016 Y0.489 Z-4.000 F1000
G1 X19.833 Y0.313 Z-4.000 F1000
G1 X19.390 Y0.066 Z-4.000 F1000
G1 X18.900 Y-0.063 Z-4.000 F1000
G1 X18.397 Y-0.128 Z-4.000 F1000
G1 X17.890 Y-0.160 Z-4.000 F1000
G1 X17.383 Y-0.175 Z-4.000 F1000
G1 X16.876 Y-0.183 Z-4.000 F1000
G1 X16.369 Y-0.187 Z-4.000 F1000
G1 X15.354 Y-0.189 Z-4.000 F1000
G1 X9.774 Y-0.190 Z-4.000 F1000
G1 X1.784 Y-0.190 Z-4.000 F1000
G1 X1.285 Y-0.100 Z-4.000 F1000
G1 X1.136 Y-0.014 Z-4.000 F1000
G1 X1.018 Y0.033 Z-4.000 F1000
G1 X0.916 Y0.108 Z-4.000 F1000
G1 X0.836 Y0.207 Z-4.000 F1000
G1 X0.731 Y0.438 Z-4.000 F1000
G1 X0.633 Y0.935 Z-4.000 F1000
G1 X0.619 Y1.442 Z-4.000 F1000
G1 X0.614 Y1.950 Z-4.000 F1000
G1 X0.612 Y2.457 Z-4.000 F1000
G1 X0.610 Y3.979 Z-4.000 F1000
G1 X0.610 Y28.582 Z-4.000 F1000
G1 X0.624 Y28.708 Z-4.000 F1000
G1 X0.669 Y28.827 Z-4.000 F1000
G1 X0.743 Y28.930 Z-4.000 F1000
G1 X0.938 Y29.093 Z-4.000 F1000
G1 X1.405 Y29.290 Z-4.000 F1000
G1 X1.909 Y29.345 Z-4.000 F1000
G1 X2.416 Y29.369 Z-4.000 F1000
G1 X2.923 Y29.380 Z-4.000 F1000
G1 X3.431 Y29.385 Z-4.000 F1000
G1 X3.938 Y29.388 Z-4.000 F1000
G1 X4.952 Y29.389 Z-4.000 F1000
G1 X18.522 Y29.390 Z-4.000 F1000
G1 X18.649 Y29.379 Z-4.000 F1000
G1 X18.768 Y29.337 Z-4.000 F1000
G1 X18.875 Y29.268 Z-4.000 F1000
G1 X19.051 Y29.086 Z-4.000 F1000
G1 X19.279 Y28.633 Z-4.000 F1000
G1 X19.340 Y28.129 Z-4.000 F1000
G1 X19.366 Y27.623 Z-4.000 F1000
G1 X19.379 Y27.115 Z-4.000 F1000
G1 X19.385 Y26.608 Z-4.000 F1000
G1 X19.387 Y26.101 Z-4.000 F1000
G1 X19.389 Y25.594 Z-4.000 F1000
G1 X19.390 Y23.057 Z-4.000 F1000
G1 X19.390 Y1.498 Z-4.000 F1000
G1 X19.385 Y1.371 Z-4.000 F1000
G1 X19.351 Y1.249 Z-4.000 F1000
G1 X19.287 Y1.139 Z-4.000 F1000
G1 X19.111 Y0.957 Z-4.000 F1000
G1 X18.886 Y0.839 Z-4.000 F1000
G1 X18.402 Y0.686 Z-4.000 F1000
G1 X17.897 Y0.644 Z-4.000 F1000
G1 X17.390 Y0.626 Z-4.000 F1000
G1 X16.883 Y0.618 Z-4.000 F1000
G1 X16.375 Y0.614 Z-4.000 F1000
G1 X15.361 Y0.611 Z-4.000 F1000
G1 X10.795 Y0.610 Z-4.000 F1000
G1 X2.171 Y0.610 Z-4.000 F1000
G1 X1.919 Y0.630 Z-4.000 F1000
G1 X1.797 Y0.664 Z-4.000 F1000
G1 X1.687 Y0.729 Z-4.000 F1000
G1 X1.598 Y0.818 Z-4.000 F1000
G1 X1.533 Y0.928 Z-4.000 F1000
G1 X1.395 Y1.416 Z-4.000 F1000
G1 X1.404 Y1.923 Z-4.000 F1000
G1 X1.408 Y2.430 Z-4.000 F1000
G1 X1.410 Y3.445 Z-4.000 F1000
G1 X1.410 Y8.518 Z-4.000 F1000
G1 X1.410 Y28.048 Z-4.000 F1000
G1 X1.442 Y28.171 Z-4.000 F1000
G1 X1.504 Y28.282 Z-4.000 F1000
G1 X1.591 Y28.373 Z-4.000 F1000
G1 X1.699 Y28.440 Z-4.000 F1000
G1 X2.184 Y28.590 Z-4.000 F1000
G1 X2.691 Y28.586 Z-4.000 F1000
G1 X3.706 Y28.587 Z-4.000 F1000
G1 X5.228 Y28.590 Z-4.000 F1000
G1 X18.037 Y28.590 Z-4.000 F1000
G1 X18.159 Y28.558 Z-4.000 F1000
G1 X18.270 Y28.496 Z-4.000 F1000
G1 X18.362 Y28.409 Z-4.000 F1000
G1 X18.428 Y28.301 Z-4.000 F1000
G1 X18.578 Y27.816 Z-4.000 F1000
G1 X18.580 Y27.309 Z-4.000 F1000
G1 X18.586 Y26.294 Z-4.000 F1000
G1 X18.589 Y25.280 Z-4.000 F1000
G1 X18.590 Y20.714 Z-4.000 F1000
G1 X18.590 Y15.134 Z-4.000 F1000
G1 X18.590 Y1.944 Z-4.000 F1000
G1 X18.558 Y1.822 Z-4.000 F1000
G1 X18.496 Y1.711 Z-4.000 F1000
G1 X18.409 Y1.619 Z-4.000 F1000
G1 X18.301 Y1.553 Z-4.000 F1000
G1 X17.816 Y1.403 Z-4.000 F1000
G1 X17.309 Y1.411 Z-4.000 F1000
G1 X16.801 Y1.412 Z-4.000 F1000
G1 X13.758 Y1.410 Z-4.000 F1000
G1 X2.724 Y1.410 Z-4.000 F1000
G1 X2.597 Y1.411 Z-4.000 F1000
G1 X2.475 Y1.443 Z-4.000 F1000
G1 X2.364 Y1.506 Z-4.000 F1000
G1 X2.273 Y1.594 Z-4.000 F1000
G1 X2.207 Y1.702 Z-4.000 F1000
G1 X2.170 Y1.823 Z-4.000 F1000
G1 X2.150 Y2.330 Z-4.000 F1000
G1 X2.181 Y2.836 Z-4.000 F1000
G1 X2.196 Y3.344 Z-4.000 F1000
G1 X2.203 Y3.851 Z-4.000 F1000
G1 X2.207 Y4.358 Z-4.000 F1000
G1 X2.209 Y5.373 Z-4.000 F1000
G1 X2.210 Y11.967 Z-4.000 F1000
G1 X2.210 Y22.113 Z-4.000 F1000
G1 X2.210 Y27.440 Z-4.000 F1000
G1 X2.242 Y27.562 Z-4.000 F1000
G1 X2.304 Y27.673 Z-4.000 F1000
G1 X2.391 Y27.765 Z-4.000 F1000
G1 X2.499 Y27.831 Z-4.000 F1000
G1 X2.620 Y27.869 Z-4.000 F1000
G1 X3.127 Y27.892 Z-4.000 F1000
G1 X3.632 Y27.837 Z-4.000 F1000
G1 X4.138 Y27.812 Z-4.000 F1000
G1 X4.645 Y27.800 Z-4.000 F1000
G1 X5.153 Y27.795 Z-4.000 F1000
G1 X5.660 Y27.792 Z-4.000 F1000
G1 X6.674 Y27.791 Z-4.000 F1000
G1 X17.454 Y27.790 Z-4.000 F1000
G1 X17.577 Y27.758 Z-4.000 F1000
G1 X17.688 Y27.696 Z-4.000 F1000
G1 X17.779 Y27.609 Z-4.000 F1000
G1 X17.846 Y27.501 Z-4.000 F1000
G1 X17.884 Y27.380 Z-4.000 F1000
G1 X17.906 Y26.873 Z-4.000 F1000
G1 X17.844 Y26.369 Z-4.000 F1000
G1 X17.815 Y25.863 Z-4.000 F1000
G1 X17.802 Y25.356 Z-4.000 F1000
G1 X17.796 Y24.849 Z-4.000 F1000
G1 X17.793 Y24.341 Z-4.000 F1000
G1 X17.791 Y23.327 Z-4.000 F1000
G1 X17.790 Y2.528 Z-4.000 F1000
G1 X17.758 Y2.405 Z-4.000 F1000
G1 X17.696 Y2.294 Z-4.000 F1000
G1 X17.609 Y2.203 Z-4.000 F1000
G1 X17.501 Y2.136 Z-4.000 F1000
G1 X17.380 Y2.099 Z-4.000 F1000
G1 X16.873 Y2.076 Z-4.000 F1000
G1 X16.371 Y2.147 Z-4.000 F1000
G1 X15.864 Y2.180 Z-4.000 F1000
G1 X15.357 Y2.196 Z-4.000 F1000
G1 X14.850 Y2.203 Z-4.000 F1000
G1 X14.343 Y2.207 Z-4.000 F1000
G1 X13.836 Y2.209 Z-4.000 F1000
G1 X11.806 Y2.210 Z-4.000 F1000
G1 X3.309 Y2.210 Z-4.000 F1000
G1 X3.187 Y2.242 Z-4.000 F1000
G1 X3.076 Y2.304 Z-4.000 F1000
G1 X2.984 Y2.391 Z-4.000 F1000
G1 X2.918 Y2.499 Z-4.000 F1000
G1 X2.880 Y2.620 Z-4.000 F1000
G1 X2.857 Y3.127 Z-4.000 F1000
G1 X2.935 Y3.628 Z-4.000 F1000
G1 X2.973 Y4.134 Z-4.000 F1000
G1 X2.992 Y4.641 Z-4.000 F1000
G1 X3.001 Y5.149 Z-4.000 F1000
G1 X3.005 Y5.656 Z-4.000 F1000
G1 X3.008 Y6.163 Z-4.000 F1000
G1 X3.010 Y7.685 Z-4.000 F1000
G1 X3.010 Y26.835 Z-4.000 F1000
G1 X3.042 Y26.958 Z-4.000 F1000
G1 X3.104 Y27.068 Z-4.000 F1000
G1 X3.191 Y27.160 Z-4.000 F1000
G1 X3.299 Y27.227 Z-4.000 F1000
G1 X3.420 Y27.264 Z-4.000 F1000
G1 X3.674 Y27.276 Z-4.000 F1000
G1 X3.928 Y27.199 Z-4.000 F1000
G1 X4.294 Y27.121 Z-4.000 F1000
G1 X4.797 Y27.054 Z-4.000 F1000
G1 X5.303 Y27.022 Z-4.000 F1000
G1 X5.810 Y27.006 Z-4.000 F1000
G1 X6.317 Y26.998 Z-4.000 F1000
G1 X6.825 Y26.994 Z-4.000 F1000
G1 X7.839 Y26.991 Z-4.000 F1000
G1 X11.898 Y26.990 Z-4.000 F1000
G1 X16.844 Y26.990 Z-4.000 F1000
G1 X16.966 Y26.958 Z-4.000 F1000
G1 X17.077 Y26.896 Z-4.000 F1000
G1 X17.169 Y26.809 Z-4.000 F1000
G1 X17.235 Y26.701 Z-4.000 F1000
G1 X17.273 Y26.580 Z-4.000 F1000
G1 X17.284 Y26.326 Z-4.000 F1000
G1 X17.208 Y26.078 Z-4.000 F1000
G1 X17.129 Y25.724 Z-4.000 F1000
G1 X17.059 Y25.222 Z-4.000 F1000
G1 X17.024 Y24.716 Z-4.000 F1000
G1 X17.007 Y24.209 Z-4.000 F1000
G1 X16.998 Y23.702 Z-4.000 F1000
G1 X16.994 Y23.194 Z-4.000 F1000
G1 X16.992 Y22.687 Z-4.000 F1000
G1 X16.990 Y21.165 Z-4.000 F1000
G1 X16.990 Y3.157 Z-4.000 F1000
G1 X16.958 Y3.034 Z-4.000 F1000
G1 X16.896 Y2.923 Z-4.000 F1000
G1 X16.809 Y2.831 Z-4.000 F1000
G1 X16.701 Y2.765 Z-4.000 F1000
G1 X16.580 Y2.727 Z-4.000 F1000
G1 X16.326 Y2.716 Z-4.000 F1000
G1 X16.073 Y2.793 Z-4.000 F1000
G1 X15.711 Y2.873 Z-4.000 F1000
G1 X15.208 Y2.942 Z-4.000 F1000
G1 X14.702 Y2.976 Z-4.000 F1000
G1 X14.195 Y2.993 Z-4.000 F1000
G1 X13.688 Y3.001 Z-4.000 F1000
G1 X13.180 Y3.006 Z-4.000 F1000
G1 X12.673 Y3.008 Z-4.000 F1000
G1 X11.151 Y3.010 Z-4.000 F1000
G1 X3.922 Y3.010 Z-4.000 F1000
G1 X3.800 Y3.042 Z-4.000 F1000
G1 X3.689 Y3.104 Z-4.000 F1000
G1 X3.597 Y3.191 Z-4.000 F1000
G1 X3.531 Y3.299 Z-4.000 F1000
G1 X3.493 Y3.420 Z-4.000 F1000
G1 X3.488 Y3.547 Z-4.000 F1000
G1 X3.593 Y4.043 Z-4.000 F1000
G1 X3.673 Y4.409 Z-4.000 F1000
G1 X3.741 Y4.912 Z-4.000 F1000
G1 X3.775 Y5.418 Z-4.000 F1000
G1 X3.792 Y5.925 Z-4.000 F1000
G1 X3.801 Y6.432 Z-4.000 F1000
G1 X3.805 Y6.940 Z-4.000 F1000
G1 X3.808 Y7.447 Z-4.000 F1000
G1 X3.810 Y8.969 Z-4.000 F1000
G1 X3.810 Y16.071 Z-4.000 F1000
G1 X3.810 Y26.217 Z-4.000 F1000
G1 X3.842 Y26.339 Z-4.000 F1000
G1 X3.904 Y26.450 Z-4.000 F1000
G1 X3.991 Y26.542 Z-4.000 F1000
G1 X4.099 Y26.608 Z-4.000 F1000
G1 X4.220 Y26.646 Z-4.000 F1000
G1 X4.347 Y26.651 Z-4.000 F1000
G1 X4.843 Y26.546 Z-4.000 F1000
G1 X5.039 Y26.471 Z-4.000 F1000
G1 X5.302 Y26.394 Z-4.000 F1000
G1 X5.682 Y26.315 Z-4.000 F1000
G1 X6.186 Y26.252 Z-4.000 F1000
G1 X6.692 Y26.221 Z-4.000 F1000
G1 X7.199 Y26.206 Z-4.000 F1000
G1 X7.706 Y26.198 Z-4.000 F1000
G1 X8.214 Y26.194 Z-4.000 F1000
G1 X9.228 Y26.191 Z-4.000 F1000
G1 X13.287 Y26.190 Z-4.000 F1000
G1 X16.203 Y26.190 Z-4.000 F1000
G1 X16.326 Y26.158 Z-4.000 F1000
G1 X16.437 Y26.096 Z-4.000 F1000
G1 X16.529 Y26.009 Z-4.000 F1000
G1 X16.595 Y25.901 Z-4.000 F1000
G1 X16.633 Y25.780 Z-4.000 F1000
G1 X16.638 Y25.653 Z-4.000 F1000
G1 X16.533 Y25.157 Z-4.000 F1000
G1 X16.457 Y24.950 Z-4.000 F1000
G1 X16.379 Y24.665 Z-4.000 F1000
G1 X16.300 Y24.249 Z-4.000 F1000
G1 X16.245 Y23.745 Z-4.000 F1000
G1 X16.218 Y23.238 Z-4.000 F1000
G1 X16.204 Y22.731 Z-4.000 F1000
G1 X16.197 Y22.224 Z-4.000 F1000
G1 X16.194 Y21.717 Z-4.000 F1000
G1 X16.191 Y20.702 Z-4.000 F1000
G1 X16.190 Y16.137 Z-4.000 F1000
G1 X16.190 Y3.835 Z-4.000 F1000
G1 X16.158 Y3.712 Z-4.000 F1000
G1 X16.096 Y3.601 Z-4.000 F1000
G1 X16.009 Y3.510 Z-4.000 F1000
G1 X15.901 Y3.443 Z-4.000 F1000
G1 X15.780 Y3.406 Z-4.000 F1000
G1 X15.653 Y3.400 Z-4.000 F1000
G1 X15.157 Y3.505 Z-4.000 F1000
G1 X14.911 Y3.583 Z-4.000 F1000
G1 X14.560 Y3.663 Z-4.000 F1000
G1 X14.058 Y3.736 Z-4.000 F1000
G1 X13.552 Y3.773 Z-4.000 F1000
G1 X13.045 Y3.791 Z-4.000 F1000
G1 X12.538 Y3.800 Z-4.000 F1000
G1 X12.031 Y3.805 Z-4.000 F1000
G1 X11.523 Y3.808 Z-4.000 F1000
G1 X10.509 Y3.809 Z-4.000 F1000
G1 X4.675 Y3.810 Z-4.000 F1000
G1 X4.552 Y3.842 Z-4.000 F1000
G1 X4.442 Y3.904 Z-4.000 F1000
G1 X4.350 Y3.991 Z-4.000 F1000
G1 X4.283 Y4.099 Z-4.000 F1000
G1 X4.246 Y4.220 Z-4.000 F1000
G1 X4.240 Y4.347 Z-4.000 F1000
G1 X4.346 Y4.843 Z-4.000 F1000
G1 X4.428 Y5.158 Z-4.000 F1000
G1 X4.511 Y5.626 Z-4.000 F1000
G1 X4.559 Y6.131 Z-4.000 F1000
G1 X4.583 Y6.638 Z-4.000 F1000
G1 X4.596 Y7.145 Z-4.000 F1000
G1 X4.603 Y7.652 Z-4.000 F1000
G1 X4.606 Y8.160 Z-4.000 F1000
G1 X4.609 Y9.174 Z-4.000 F1000
G1 X4.610 Y13.233 Z-4.000 F1000
G1 X4.610 Y25.534 Z-4.000 F1000
G1 X4.642 Y25.657 Z-4.000 F1000
G1 X4.704 Y25.768 Z-4.000 F1000
G1 X4.791 Y25.859 Z-4.000 F1000
G1 X4.899 Y25.926 Z-4.000 F1000
G1 X5.020 Y25.963 Z-4.000 F1000
G1 X5.147 Y25.969 Z-4.000 F1000
G1 X5.643 Y25.864 Z-4.000 F1000
G1 X5.717 Y25.825 Z-4.000 F1000
G1 X5.882 Y25.749 Z-4.000 F1000
G1 X6.090 Y25.671 Z-4.000 F1000
G1 X6.375 Y25.591 Z-4.000 F1000
G1 X6.788 Y25.509 Z-4.000 F1000
G1 X7.291 Y25.451 Z-4.000 F1000
G1 X7.798 Y25.421 Z-4.000 F1000
G1 X8.305 Y25.406 Z-4.000 F1000
G1 X8.812 Y25.398 Z-4.000 F1000
G1 X9.319 Y25.394 Z-4.000 F1000
G1 X10.334 Y25.391 Z-4.000 F1000
G1 X13.885 Y25.390 Z-4.000 F1000
G1 X15.534 Y25.390 Z-4.000 F1000
G1 X15.656 Y25.358 Z-4.000 F1000
G1 X15.767 Y25.296 Z-4.000 F1000
G1 X15.859 Y25.209 Z-4.000 F1000
G1 X15.926 Y25.101 Z-4.000 F1000
G1 X15.963 Y24.980 Z-4.000 F1000
G1 X15.969 Y24.853 Z-4.000 F1000
G1 X15.863 Y24.357 Z-4.000 F1000
G1 X15.826 Y24.285 Z-4.000 F1000
G1 X15.748 Y24.119 Z-4.000 F1000
G1 X15.672 Y23.914 Z-4.000 F1000
G1 X15.591 Y23.630 Z-4.000 F1000
G1 X15.510 Y23.223 Z-4.000 F1000
G1 X15.451 Y22.719 Z-4.000 F1000
G1 X15.421 Y22.213 Z-4.000 F1000
G1 X15.406 Y21.706 Z-4.000 F1000
G1 X15.398 Y21.198 Z-4.000 F1000
G1 X15.394 Y20.691 Z-4.000 F1000
G1 X15.391 Y19.677 Z-4.000 F1000
G1 X15.390 Y16.126 Z-4.000 F1000
G1 X15.390 Y15.618 Z-4.000 F1000
G1 X15.390 Y4.585 Z-4.000 F1000
G1 X15.358 Y4.462 Z-4.000 F1000
G1 X15.296 Y4.351 Z-4.000 F1000
G1 X15.209 Y4.260 Z-4.000 F1000
G1 X15.101 Y4.193 Z-4.000 F1000
G1 X14.980 Y4.156 Z-4.000 F1000
G1 X14.853 Y4.150 Z-4.000 F1000
G1 X14.357 Y4.255 Z-4.000 F1000
G1 X14.135 Y4.335 Z-4.000 F1000
G1 X13.831 Y4.418 Z-4.000 F1000
G1 X13.385 Y4.501 Z-4.000 F1000
G1 X12.880 Y4.553 Z-4.000 F1000
G1 X12.374 Y4.581 Z-4.000 F1000
G1 X11.867 Y4.595 Z-4.000 F1000
G1 X11.360 Y4.602 Z-4.000 F1000
G1 X10.852 Y4.606 Z-4.000 F1000
G1 X9.838 Y4.609 Z-4.000 F1000
G1 X6.287 Y4.610 Z-4.000 F1000
G1 X5.399 Y4.610 Z-4.000 F1000
G1 X5.276 Y4.642 Z-4.000 F1000
G1 X5.165 Y4.704 Z-4.000 F1000
G1 X5.074 Y4.791 Z-4.000 F1000
G1 X5.007 Y4.899 Z-4.000 F1000
G1 X4.970 Y5.020 Z-4.000 F1000
G1 X4.964 Y5.147 Z-4.000 F1000
G1 X5.070 Y5.643 Z-4.000 F1000
G1 X5.149 Y5.875 Z-4.000 F1000
G1 X5.232 Y6.196 Z-4.000 F1000
G1 X5.314 Y6.673 Z-4.000 F1000
G1 X5.361 Y7.178 Z-4.000 F1000
G1 X5.384 Y7.685 Z-4.000 F1000
G1 X5.397 Y8.192 Z-4.000 F1000
G1 X5.403 Y8.699 Z-4.000 F1000
G1 X5.406 Y9.206 Z-4.000 F1000
G1 X5.409 Y10.221 Z-4.000 F1000
G1 X5.410 Y14.279 Z-4.000 F1000
G1 X5.410 Y24.805 Z-4.000 F1000
G1 X5.442 Y24.928 Z-4.000 F1000
G1 X5.504 Y25.039 Z-4.000 F1000
G1 X5.591 Y25.131 Z-4.000 F1000
G1 X5.699 Y25.197 Z-4.000 F1000
G1 X5.820 Y25.235 Z-4.000 F1000
G1 X5.947 Y25.240 Z-4.000 F1000
G1 X6.443 Y25.135 Z-4.000 F1000
G1 X6.572 Y25.057 Z-4.000 F1000
G1 X6.729 Y24.980 Z-4.000 F1000
G1 X6.935 Y24.898 Z-4.000 F1000
G1 X7.199 Y24.817 Z-4.000 F1000
G1 X7.578 Y24.734 Z-4.000 F1000
G1 X8.080 Y24.665 Z-4.000 F1000
G1 X8.586 Y24.629 Z-4.000 F1000
G1 X9.093 Y24.610 Z-4.000 F1000
G1 X9.600 Y24.601 Z-4.000 F1000
G1 X10.108 Y24.596 Z-4.000 F1000
G1 X10.615 Y24.593 Z-4.000 F1000
G1 X11.629 Y24.591 Z-4.000 F1000
G1 X13.659 Y24.590 Z-4.000 F1000
G1 X14.800 Y24.590 Z-4.000 F1000
G1 X14.923 Y24.558 Z-4.000 F1000
G1 X15.033 Y24.496 Z-4.000 F1000
G1 X15.125 Y24.409 Z-4.000 F1000
G1 X15.192 Y24.301 Z-4.000 F1000
G1 X15.229 Y24.180 Z-4.000 F1000
G1 X15.235 Y24.053 Z-4.000 F1000
G1 X15.129 Y23.557 Z-4.000 F1000
G1 X15.053 Y23.428 Z-4.000 F1000
G1 X14.975 Y23.268 Z-4.000 F1000
G1 X14.893 Y23.059 Z-4.000 F1000
G1 X14.812 Y22.788 Z-4.000 F1000
G1 X14.728 Y22.399 Z-4.000 F1000
G1 X14.662 Y21.897 Z-4.000 F1000
G1 X14.628 Y21.390 Z-4.000 F1000
G1 X14.610 Y20.883 Z-4.000 F1000
G1 X14.600 Y20.376 Z-4.000 F1000
G1 X14.595 Y19.869 Z-4.000 F1000
G1 X14.593 Y19.362 Z-4.000 F1000
G1 X14.591 Y18.347 Z-4.000 F1000
G1 X14.590 Y11.245 Z-4.000 F1000
G1 X14.590 Y5.285 Z-4.000 F1000
G1 X14.558 Y5.162 Z-4.000 F1000
G1 X14.496 Y5.051 Z-4.000 F1000
G1 X14.409 Y4.959 Z-4.000 F1000
G1 X14.301 Y4.893 Z-4.000 F1000
G1 X14.180 Y4.855 Z-4.000 F1000
G1 X14.053 Y4.850 Z-4.000 F1000
G1 X13.557 Y4.955 Z-4.000 F1000
G1 X13.477 Y4.994 Z-4.000 F1000
G1 X13.293 Y5.073 Z-4.000 F1000
G1 X13.062 Y5.152 Z-4.000 F1000
G1 X12.737 Y5.235 Z-4.000 F1000
G1 X12.249 Y5.317 Z-4.000 F1000
G1 X11.744 Y5.362 Z-4.000 F1000
G1 X11.237 Y5.385 Z-4.000 F1000
G1 X10.730 Y5.397 Z-4.000 F1000
G1 X10.222 Y5.403 Z-4.000 F1000
G1 X9.715 Y5.406 Z-4.000 F1000
G1 X8.701 Y5.409 Z-4.000 F1000
G1 X6.037 Y5.410 Z-4.000 F1000
G1 X5.915 Y5.442 Z-4.000 F1000
G1 X5.804 Y5.504 Z-4.000 F1000
G1 X5.712 Y5.591 Z-4.000 F1000
G1 X5.646 Y5.699 Z-4.000 F1000
G1 X5.608 Y5.820 Z-4.000 F1000
G1 X5.602 Y5.947 Z-4.000 F1000
G1 X5.708 Y6.443 Z-4.000 F1000
G1 X5.782 Y6.574 Z-4.000 F1000
G1 X5.858 Y6.742 Z-4.000 F1000
G1 X5.936 Y6.954 Z-4.000 F1000
G1 X6.017 Y7.249 Z-4.000 F1000
G1 X6.098 Y7.675 Z-4.000 F1000
G1 X6.152 Y8.179 Z-4.000 F1000
G1 X6.180 Y8.686 Z-4.000 F1000
G1 X6.195 Y9.193 Z-4.000 F1000
G1 X6.202 Y9.700 Z-4.000 F1000
G1 X6.206 Y10.207 Z-4.000 F1000
G1 X6.209 Y11.222 Z-4.000 F1000
G1 X6.210 Y14.773 Z-4.000 F1000
G1 X6.210 Y24.158 Z-4.000 F1000
G1 X6.242 Y24.280 Z-4.000 F1000
G1 X6.304 Y24.391 Z-4.000 F1000
G1 X6.391 Y24.483 Z-4.000 F1000
G1 X6.499 Y24.549 Z-4.000 F1000
G1 X6.620 Y24.587 Z-4.000 F1000
G1 X6.747 Y24.593 Z-4.000 F1000
G1 X6.871 Y24.566 Z-4.000 F1000
G1 X7.325 Y24.339 Z-4.000 F1000
G1 X7.434 Y24.274 Z-4.000 F1000
G1 X7.590 Y24.195 Z-4.000 F1000
G1 X7.788 Y24.114 Z-4.000 F1000
G1 X8.047 Y24.031 Z-4.000 F1000
G1 X8.408 Y23.947 Z-4.000 F1000
G1 X8.910 Y23.873 Z-4.000 F1000
G1 X9.416 Y23.834 Z-4.000 F1000
G1 X9.923 Y23.813 Z-4.000 F1000
G1 X10.430 Y23.802 Z-4.000 F1000
G1 X10.937 Y23.796 Z-4.000 F1000
G1 X11.444 Y23.793 Z-4.000 F1000
G1 X12.459 Y23.791 Z-4.000 F1000
G1 X14.108 Y23.790 Z-4.000 F1000
G1 X14.230 Y23.758 Z-4.000 F1000
G1 X14.341 Y23.696 Z-4.000 F1000
G1 X14.433 Y23.609 Z-4.000 F1000
G1 X14.499 Y23.501 Z-4.000 F1000
G1 X14.537 Y23.380 Z-4.000 F1000
G1 X14.542 Y23.253 Z-4.000 F1000
G1 X14.516 Y23.129 Z-4.000 F1000
G1 X14.289 Y22.675 Z-4.000 F1000
G1 X14.211 Y22.525 Z-4.000 F1000
G1 X14.127 Y22.325 Z-4.000 F1000
G1 X14.045 Y22.076 Z-4.000 F1000
G1 X13.959 Y21.724 Z-4.000 F1000
G1 X13.879 Y21.223 Z-4.000 F1000
G1 X13.838 Y20.717 Z-4.000 F1000
G1 X13.815 Y20.211 Z-4.000 F1000
G1 X13.803 Y19.703 Z-4.000 F1000
G1 X13.797 Y19.196 Z-4.000 F1000
G1 X13.794 Y18.689 Z-4.000 F1000
G1 X13.791 Y17.674 Z-4.000 F1000
G1 X13.790 Y14.123 Z-4.000 F1000
G1 X13.790 Y6.007 Z-4.000 F1000
G1 X13.758 Y5.884 Z-4.000 F1000
G1 X13.696 Y5.773 Z-4.000 F1000
G1 X13.609 Y5.682 Z-4.000 F1000
G1 X13.501 Y5.615 Z-4.000 F1000
G1 X13.380 Y5.578 Z-4.000 F1000
G1 X13.253 Y5.572 Z-4.000 F1000
G1 X12.757 Y5.677 Z-4.000 F1000
G1 X12.689 Y5.717 Z-4.000 F1000
G1 X12.542 Y5.794 Z-4.000 F1000
G1 X12.360 Y5.872 Z-4.000 F1000
G1 X12.115 Y5.955 Z-4.000 F1000
G1 X11.785 Y6.037 Z-4.000 F1000
G1 X11.284 Y6.120 Z-4.000 F1000
G1 X10.779 Y6.163 Z-4.000 F1000
G1 X10.272 Y6.185 Z-4.000 F1000
G1 X9.765 Y6.197 Z-4.000 F1000
G1 X9.258 Y6.203 Z-4.000 F1000
G1 X8.750 Y6.206 Z-4.000 F1000
G1 X7.736 Y6.209 Z-4.000 F1000
G1 X6.721 Y6.210 Z-4.000 F1000
G1 X6.599 Y6.242 Z-4.000 F1000
G1 X6.488 Y6.304 Z-4.000 F1000
G1 X6.396 Y6.391 Z-4.000 F1000
G1 X6.330 Y6.499 Z-4.000 F1000
G1 X6.292 Y6.620 Z-4.000 F1000
G1 X6.286 Y6.747 Z-4.000 F1000
G1 X6.313 Y6.871 Z-4.000 F1000
G1 X6.540 Y7.325 Z-4.000 F1000
G1 X6.617 Y7.481 Z-4.000 F1000
G1 X6.700 Y7.692 Z-4.000 F1000
G1 X6.782 Y7.964 Z-4.000 F1000
G1 X6.867 Y8.354 Z-4.000 F1000
G1 X6.935 Y8.857 Z-4.000 F1000
G1 X6.970 Y9.363 Z-4.000 F1000
G1 X6.989 Y9.870 Z-4.000 F1000
G1 X6.999 Y10.377 Z-4.000 F1000
G1 X7.004 Y10.884 Z-4.000 F1000
G1 X7.007 Y11.391 Z-4.000 F1000
G1 X7.009 Y12.406 Z-4.000 F1000
G1 X7.010 Y17.986 Z-4.000 F1000
G1 X7.010 Y23.439 Z-4.000 F1000
G1 X7.042 Y23.562 Z-4.000 F1000
G1 X7.104 Y23.673 Z-4.000 F1000
G1 X7.191 Y23.764 Z-4.000 F1000
G1 X7.299 Y23.831 Z-4.000 F1000
G1 X7.420 Y23.869 Z-4.000 F1000
G1 X7.547 Y23.874 Z-4.000 F1000
G1 X7.671 Y23.848 Z-4.000 F1000
G1 X8.125 Y23.621 Z-4.000 F1000
G1 X8.246 Y23.532 Z-4.000 F1000
G1 X8.375 Y23.456 Z-4.000 F1000
G1 X8.543 Y23.375 Z-4.000 F1000
G1 X8.748 Y23.296 Z-4.000 F1000
G1 X9.030 Y23.211 Z-4.000 F1000
G1 X9.426 Y23.127 Z-4.000 F1000
G1 X9.929 Y23.062 Z-4.000 F1000
G1 X10.435 Y23.028 Z-4.000 F1000
G1 X10.942 Y23.010 Z-4.000 F1000
G1 X11.449 Y23.001 Z-4.000 F1000
G1 X11.956 Y22.996 Z-4.000 F1000
G1 X13.098 Y22.991 Z-4.000 F1000
G1 X13.351 Y22.990 Z-4.000 F1000
G1 X13.474 Y22.958 Z-4.000 F1000
G1 X13.585 Y22.897 Z-4.000 F1000
G1 X13.676 Y22.809 Z-4.000 F1000
G1 X13.743 Y22.701 Z-4.000 F1000
G1 X13.780 Y22.580 Z-4.000 F1000
G1 X13.786 Y22.453 Z-4.000 F1000
G1 X13.759 Y22.329 Z-4.000 F1000
G1 X13.532 Y21.875 Z-4.000 F1000
G1 X13.455 Y21.742 Z-4.000 F1000
G1 X13.373 Y21.569 Z-4.000 F1000
G1 X13.292 Y21.358 Z-4.000 F1000
G1 X13.207 Y21.067 Z-4.000 F1000
G1 X13.122 Y20.654 Z-4.000 F1000
G1 X13.060 Y20.150 Z-4.000 F1000
G1 X13.027 Y19.644 Z-4.000 F1000
G1 X13.010 Y19.137 Z-4.000 F1000
G1 X13.001 Y18.630 Z-4.000 F1000
G1 X12.996 Y18.123 Z-4.000 F1000
G1 X12.993 Y17.615 Z-4.000 F1000
G1 X12.991 Y16.601 Z-4.000 F1000
G1 X12.990 Y11.021 Z-4.000 F1000
G1 X12.990 Y6.709 Z-4.000 F1000
G1 X12.958 Y6.586 Z-4.000 F1000
G1 X12.896 Y6.475 Z-4.000 F1000
G1 X12.809 Y6.383 Z-4.000 F1000
G1 X12.701 Y6.317 Z-4.000 F1000
G1 X12.580 Y6.279 Z-4.000 F1000
G1 X12.453 Y6.274 Z-4.000 F1000
G1 X12.329 Y6.300 Z-4.000 F1000
G1 X11.875 Y6.527 Z-4.000 F1000
G1 X11.706 Y6.611 Z-4.000 F1000
G1 X11.503 Y6.692 Z-4.000 F1000
G1 X11.223 Y6.777 Z-4.000 F1000
G1 X10.843 Y6.862 Z-4.000 F1000
G1 X10.340 Y6.931 Z-4.000 F1000
G1 X9.834 Y6.968 Z-4.000 F1000
G1 X9.327 Y6.988 Z-4.000 F1000
G1 X8.820 Y6.998 Z-4.000 F1000
G1 X7.806 Y7.008 Z-4.000 F1000
G1 X7.425 Y7.009 Z-4.000 F1000
G1 X7.302 Y7.041 Z-4.000 F1000
G1 X7.192 Y7.103 Z-4.000 F1000
G1 X7.100 Y7.191 Z-4.000 F1000
G1 X7.034 Y7.299 Z-4.000 F1000
G1 X6.996 Y7.420 Z-4.000 F1000
G1 X6.991 Y7.547 Z-4.000 F1000
G1 X7.018 Y7.671 Z-4.000 F1000
G1 X7.245 Y8.124 Z-4.000 F1000
G1 X7.325 Y8.251 Z-4.000 F1000
G1 X7.404 Y8.405 Z-4.000 F1000
G1 X7.483 Y8.597 Z-4.000 F1000
G1 X7.566 Y8.851 Z-4.000 F1000
G1 X7.649 Y9.203 Z-4.000 F1000
G1 X7.725 Y9.704 Z-4.000 F1000
G1 X7.765 Y10.210 Z-4.000 F1000
G1 X7.786 Y10.717 Z-4.000 F1000
G1 X7.798 Y11.224 Z-4.000 F1000
G1 X7.803 Y11.731 Z-4.000 F1000
G1 X7.807 Y12.238 Z-4.000 F1000
G1 X7.809 Y13.253 Z-4.000 F1000
G1 X7.810 Y17.311 Z-4.000 F1000
G1 X7.810 Y22.764 Z-4.000 F1000
G1 X7.842 Y22.887 Z-4.000 F1000
G1 X7.904 Y22.998 Z-4.000 F1000
G1 X7.991 Y23.090 Z-4.000 F1000
G1 X8.099 Y23.156 Z-4.000 F1000
G1 X8.220 Y23.194 Z-4.000 F1000
G1 X8.347 Y23.199 Z-4.000 F1000
G1 X8.471 Y23.173 Z-4.000 F1000
G1 X8.925 Y22.946 Z-4.000 F1000
G1 X9.031 Y22.840 Z-4.000 F1000
G1 X9.150 Y22.749 Z-4.000 F1000
G1 X9.278 Y22.670 Z-4.000 F1000
G1 X9.434 Y22.591 Z-4.000 F1000
G1 X9.633 Y22.510 Z-4.000 F1000
G1 X9.894 Y22.428 Z-4.000 F1000
G1 X10.260 Y22.344 Z-4.000 F1000
G1 X10.762 Y22.271 Z-4.000 F1000
G1 X11.268 Y22.233 Z-4.000 F1000
G1 X11.775 Y22.213 Z-4.000 F1000
G1 X12.282 Y22.196 Z-4.000 F1000
G1 X12.662 Y22.193 Z-4.000 F1000
G1 X12.785 Y22.160 Z-4.000 F1000
G1 X12.895 Y22.098 Z-4.000 F1000
G1 X12.986 Y22.010 Z-4.000 F1000
G1 X13.052 Y21.902 Z-4.000 F1000
G1 X13.089 Y21.780 Z-4.000 F1000
G1 X13.094 Y21.654 Z-4.000 F1000
G1 X13.067 Y21.530 Z-4.000 F1000
G1 X12.837 Y21.077 Z-4.000 F1000
G1 X12.747 Y20.958 Z-4.000 F1000
G1 X12.668 Y20.830 Z-4.000 F1000
G1 X12.590 Y20.674 Z-4.000 F1000
G1 X12.508 Y20.472 Z-4.000 F1000
G1 X12.426 Y20.209 Z-4.000 F1000
G1 X12.342 Y19.839 Z-4.000 F1000
G1 X12.270 Y19.337 Z-4.000 F1000
G1 X12.233 Y18.831 Z-4.000 F1000
G1 X12.213 Y18.324 Z-4.000 F1000
G1 X12.202 Y17.817 Z-4.000 F1000
G1 X12.196 Y17.309 Z-4.000 F1000
G1 X12.193 Y16.802 Z-4.000 F1000
G1 X12.191 Y15.787 Z-4.000 F1000
G1 X12.190 Y11.729 Z-4.000 F1000
G1 X12.190 Y7.417 Z-4.000 F1000
G1 X12.158 Y7.295 Z-4.000 F1000
G1 X12.096 Y7.184 Z-4.000 F1000
G1 X12.009 Y7.092 Z-4.000 F1000
G1 X11.901 Y7.025 Z-4.000 F1000
G1 X11.780 Y6.988 Z-4.000 F1000
G1 X11.653 Y6.982 Z-4.000 F1000
G1 X11.529 Y7.009 Z-4.000 F1000
G1 X11.075 Y7.236 Z-4.000 F1000
G1 X10.949 Y7.317 Z-4.000 F1000
G1 X10.797 Y7.396 Z-4.000 F1000
G1 X10.608 Y7.475 Z-4.000 F1000
G1 X10.359 Y7.558 Z-4.000 F1000
G1 X10.015 Y7.641 Z-4.000 F1000
G1 X9.514 Y7.721 Z-4.000 F1000
G1 X9.009 Y7.763 Z-4.000 F1000
G1 X8.503 Y7.798 Z-4.000 F1000
G1 X8.122 Y7.803 Z-4.000 F1000
G1 X8.000 Y7.837 Z-4.000 F1000
G1 X7.890 Y7.900 Z-4.000 F1000
G1 X7.799 Y7.989 Z-4.000 F1000
G1 X7.734 Y8.097 Z-4.000 F1000
G1 X7.698 Y8.219 Z-4.000 F1000
G1 X7.694 Y8.346 Z-4.000 F1000
G1 X7.722 Y8.469 Z-4.000 F1000
G1 X7.954 Y8.920 Z-4.000 F1000
G1 X8.047 Y9.038 Z-4.000 F1000
G1 X8.126 Y9.166 Z-4.000 F1000
G1 X8.207 Y9.325 Z-4.000 F1000
G1 X8.285 Y9.516 Z-4.000 F1000
G1 X8.369 Y9.778 Z-4.000 F1000
G1 X8.452 Y10.134 Z-4.000 F1000
G1 X8.527 Y10.635 Z-4.000 F1000
G1 X8.566 Y11.141 Z-4.000 F1000
G1 X8.587 Y11.648 Z-4.000 F1000
G1 X8.598 Y12.155 Z-4.000 F1000
G1 X8.603 Y12.662 Z-4.000 F1000
G1 X8.607 Y13.170 Z-4.000 F1000
G1 X8.609 Y14.184 Z-4.000 F1000
G1 X8.610 Y18.243 Z-4.000 F1000
G1 X8.610 Y22.047 Z-4.000 F1000
G1 X8.601 Y22.099 Z-3.967 F1000
G1 X8.580 Y22.146 Z-3.933 F1000
G1 X8.547 Y22.187 Z-3.900 F1000
G1 X8.504 Y22.217 Z-3.867 F1000
G1 X8.455 Y22.235 Z-3.833 F1000
G1 X8.406 Y22.253 Z-3.800 F1000
G2 X8.363 Y22.576 Z-3.800 I0.094 J0.177 F1000
G1 X8.387 Y22.599 Z-3.800 F1000
G1 X9.451 Y23.601 Z-3.800 F1000
G2 X9.740 Y23.586 Z-3.800 I0.137 J-0.146 F1000
G2 X9.712 Y23.298 Z-3.800 I-0.152 J-0.130 F1000
G3 X9.360 Y22.982 Z-3.800 I2.253 J-2.867 F1000
G3 X9.150 Y22.749 Z-4.000 I2.604 J-2.551 F1000
G1 X8.996 Y22.547 Z-4.000 F1000
G1 X9.015 Y22.399 Z-4.000 F1000
G1 X9.072 Y22.260 Z-4.000 F1000
G1 X9.183 Y22.159 Z-4.000 F1000
G1 X9.316 Y22.060 Z-4.000 F1000
G1 X9.463 Y21.967 Z-4.000 F1000
G1 X9.653 Y21.869 Z-4.000 F1000
G1 X9.893 Y21.767 Z-4.000 F1000
G1 X10.182 Y21.671 Z-4.000 F1000
G1 X10.570 Y21.576 Z-4.000 F1000
G1 X11.071 Y21.495 Z-4.000 F1000
G1 X11.574 Y21.427 Z-4.000 F1000
G1 X11.827 Y21.415 Z-4.000 F1000
G1 X11.954 Y21.411 Z-4.000 F1000
G1 X12.075 Y21.374 Z-4.000 F1000
G1 X12.184 Y21.309 Z-4.000 F1000
G1 X12.272 Y21.218 Z-4.000 F1000
G1 X12.335 Y21.108 Z-4.000 F1000
G1 X12.368 Y20.985 Z-4.000 F1000
G1 X12.369 Y20.858 Z-4.000 F1000
G1 X12.338 Y20.735 Z-4.000 F1000
G1 X12.095 Y20.290 Z-4.000 F1000
G1 X11.998 Y20.176 Z-4.000 F1000
G1 X11.914 Y20.052 Z-4.000 F1000
G1 X11.836 Y19.912 Z-4.000 F1000
G1 X11.753 Y19.728 Z-4.000 F1000
G1 X11.672 Y19.503 Z-4.000 F1000
G1 X11.587 Y19.189 Z-4.000 F1000
G1 X11.502 Y18.732 Z-4.000 F1000
G1 X11.449 Y18.227 Z-4.000 F1000
G1 X11.422 Y17.720 Z-4.000 F1000
G1 X11.407 Y17.213 Z-4.000 F1000
G1 X11.399 Y16.706 Z-4.000 F1000
G1 X11.395 Y16.199 Z-4.000 F1000
G1 X11.393 Y15.692 Z-4.000 F1000
G1 X11.390 Y14.170 Z-4.000 F1000
G1 X11.390 Y8.209 Z-4.000 F1000
G1 X11.358 Y8.086 Z-4.000 F1000
G1 X11.296 Y7.976 Z-4.000 F1000
G1 X11.209 Y7.884 Z-4.000 F1000
G1 X11.101 Y7.817 Z-4.000 F1000
G1 X10.980 Y7.780 Z-4.000 F1000
G1 X10.853 Y7.774 Z-4.000 F1000
G1 X10.729 Y7.801 Z-4.000 F1000
G1 X10.275 Y8.028 Z-4.000 F1000
G1 X10.148 Y8.108 Z-4.000 F1000
G1 X9.991 Y8.189 Z-4.000 F1000
G1 X9.524 Y8.386 Z-4.000 F1000
G1 X9.189 Y8.495 Z-4.000 F1000
G1 X9.064 Y8.516 Z-4.000 F1000
G1 X8.938 Y8.534 Z-4.000 F1000
G1 X8.821 Y8.583 Z-4.000 F1000
G1 X8.720 Y8.660 Z-4.000 F1000
G1 X8.642 Y8.760 Z-4.000 F1000
G1 X8.591 Y8.876 Z-4.000 F1000
G1 X8.572 Y9.001 Z-4.000 F1000
G1 X8.584 Y9.127 Z-4.000 F1000
G1 X8.759 Y9.604 Z-4.000 F1000
G1 X8.845 Y9.726 Z-4.000 F1000
G1 X8.925 Y9.863 Z-4.000 F1000
G1 X9.008 Y10.034 Z-4.000 F1000
G1 X9.096 Y10.261 Z-4.000 F1000
G1 X9.181 Y10.548 Z-4.000 F1000
G1 X9.269 Y10.960 Z-4.000 F1000
G1 X9.334 Y11.463 Z-4.000 F1000
G1 X9.369 Y11.969 Z-4.000 F1000
G1 X9.388 Y12.476 Z-4.000 F1000
G1 X9.398 Y12.984 Z-4.000 F1000
G1 X9.403 Y13.491 Z-4.000 F1000
G1 X9.406 Y13.998 Z-4.000 F1000
G1 X9.409 Y15.013 Z-4.000 F1000
G1 X9.410 Y19.071 Z-4.000 F1000
G1 X9.410 Y20.973 Z-4.000 F1000
G1 X9.442 Y21.096 Z-4.000 F1000
G1 X9.504 Y21.207 Z-4.000 F1000
G1 X9.591 Y21.298 Z-4.000 F1000
G1 X9.699 Y21.365 Z-4.000 F1000
G1 X9.820 Y21.403 Z-4.000 F1000
G1 X9.947 Y21.408 Z-4.000 F1000
G1 X10.071 Y21.382 Z-4.000 F1000
G1 X10.525 Y21.155 Z-4.000 F1000
G1 X10.630 Y21.048 Z-4.000 F1000
G1 X10.774 Y20.941 Z-4.000 F1000
G1 X10.978 Y20.831 Z-4.000 F1000
G1 X11.097 Y20.788 Z-4.000 F1000
G1 X11.219 Y20.752 Z-4.000 F1000
G1 X11.328 Y20.687 Z-4.000 F1000
G1 X11.416 Y20.596 Z-4.000 F1000
G1 X11.480 Y20.487 Z-4.000 F1000
G1 X11.513 Y20.364 Z-4.000 F1000
G1 X11.515 Y20.237 Z-4.000 F1000
G1 X11.485 Y20.114 Z-4.000 F1000
G1 X11.243 Y19.668 Z-4.000 F1000
G1 X11.158 Y19.542 Z-4.000 F1000
G1 X11.075 Y19.395 Z-4.000 F1000
G1 X10.983 Y19.197 Z-4.000 F1000
G1 X10.896 Y18.961 Z-4.000 F1000
G1 X10.805 Y18.636 Z-4.000 F1000
G1 X10.708 Y18.138 Z-4.000 F1000
G1 X10.628 Y17.637 Z-4.000 F1000
G1 X10.607 Y17.130 Z-4.000 F1000
G1 X10.599 Y16.623 Z-4.000 F1000
G1 X10.595 Y16.115 Z-4.000 F1000
G1 X10.592 Y15.608 Z-4.000 F1000
G1 X10.590 Y14.086 Z-4.000 F1000
G1 X10.590 Y8.887 Z-4.000 F1000
G1 X10.558 Y8.764 Z-4.000 F1000
G1 X10.496 Y8.653 Z-4.000 F1000
G1 X10.409 Y8.561 Z-4.000 F1000
G1 X10.301 Y8.495 Z-4.000 F1000
G1 X10.180 Y8.457 Z-4.000 F1000
G1 X10.053 Y8.452 Z-4.000 F1000
G1 X9.929 Y8.478 Z-4.000 F1000
G1 X9.815 Y8.535 Z-4.000 F1000
G1 X9.720 Y8.618 Z-4.000 F1000
G1 X9.649 Y8.723 Z-4.000 F1000
G1 X9.596 Y8.839 Z-4.000 F1000
G1 X9.575 Y8.964 Z-4.000 F1000
G1 X9.619 Y9.469 Z-4.000 F1000
G1 X9.823 Y9.933 Z-4.000 F1000
G1 X9.967 Y10.420 Z-4.000 F1000
G1 X10.065 Y10.918 Z-4.000 F1000
G1 X10.129 Y11.421 Z-4.000 F1000
G1 X10.165 Y11.927 Z-4.000 F1000
G1 X10.171 Y12.054 Z-4.000 F1000
G3 X9.771 Y12.056 Z-4.000 I-0.200 J0.001 F1000
G3 X9.828 Y11.914 Z-4.000 I0.200 J-0.001 F1000
G1 X9.865 Y11.877 Z-3.993 F1000
G1 X9.899 Y11.843 Z-3.973 F1000
G1 X9.928 Y11.813 Z-3.941 F1000
G1 X9.950 Y11.791 Z-3.900 F1000
G1 X9.964 Y11.777 Z-3.852 F1000
G1 X9.969 Y11.772 Z-3.800 F1000
G1 X9.969 Y11.772 Z5.000 F1000
G1 X8.439 Y20.754 Z5.000 F1000
G1 X8.439 Y20.754 Z-3.600 F1000
G1 X8.439 Y20.754 Z-3.800 F1000
G1 X8.445 Y20.753 Z-3.852 F1000
G1 X8.465 Y20.748 Z-3.900 F1000
G1 X8.496 Y20.740 Z-3.941 F1000
G1 X8.536 Y20.729 Z-3.973 F1000
G1 X8.582 Y20.717 Z-3.993 F1000
G1 X8.633 Y20.705 Z-4.000 F1000
G3 X9.410 Y20.593 Z-4.000 I0.905 J3.532 F1000
G1 X9.537 Y20.593 Z-4.000 F1000
G1 X9.786 Y20.545 Z-4.000 F1000
G1 X10.245 Y20.328 Z-4.000 F1000
G1 X10.357 Y20.269 Z-4.000 F1000
G1 X10.451 Y20.184 Z-4.000 F1000
G1 X10.521 Y20.078 Z-4.000 F1000
G1 X10.561 Y19.958 Z-4.000 F1000
G1 X10.571 Y19.832 Z-4.000 F1000
G1 X10.548 Y19.707 Z-4.000 F1000
G1 X10.333 Y19.247 Z-4.000 F1000
G1 X10.206 Y19.046 Z-4.000 F1000
G1 X10.060 Y18.720 Z-4.000 F1000
G1 X9.921 Y18.232 Z-4.000 F1000
G1 X9.881 Y17.982 Z-4.000 F1000
G1 X9.867 Y17.856 Z-4.000 F1000
G1 X9.855 Y17.730 Z-4.000 F1000
G3 X10.254 Y17.706 Z-4.000 I0.200 J-0.012 F1000
G3 X10.204 Y17.851 Z-4.000 I-0.200 J0.012 F1000
G1 X10.170 Y17.889 Z-3.993 F1000
G1 X10.138 Y17.925 Z-3.973 F1000
G1 X10.110 Y17.956 Z-3.941 F1000
G1 X10.089 Y17.980 Z-3.900 F1000
G1 X10.076 Y17.995 Z-3.852 F1000
G1 X10.071 Y18.000 Z-3.800 F1000
G1 X10.071 Y18.000 Z5.000 F1000
(When using Fusion 360 for Personal Use, the feedrate of)
(rapid moves is reduced to match the feedrate of cutting)
(moves, which can increase machining time. Unrestricted rapid)
(moves are available with a Fusion 360 Subscription.)

(Ramp1)
G0 Z15.000
G0 X3.902 Y5.344 Z15.000
G1 X3.902 Y5.344 Z15.000 F1000
G1 X3.902 Y5.344 Z-2.301 F1000
G1 X3.902 Y5.344 Z-3.275 F1000
G1 X3.901 Y5.345 Z-3.303 F1000
G1 X3.898 Y5.351 Z-3.330 F1000
G1 X3.893 Y5.359 Z-3.356 F1000
G1 X3.886 Y5.370 Z-3.381 F1000
G1 X3.876 Y5.383 Z-3.404 F1000
G1 X3.863 Y5.397 Z-3.424 F1000
G1 X3.847 Y5.413 Z-3.441 F1000
G1 X3.829 Y5.428 Z-3.455 F1000
G1 X3.807 Y5.442 Z-3.465 F1000
G1 X3.783 Y5.454 Z-3.472 F1000
G1 X3.757 Y5.464 Z-3.475 F1000
G3 X3.605 Y4.988 Z-3.502 I-0.076 J-0.238 F1000
G3 X3.757 Y5.464 Z-3.530 I0.076 J0.238 F1000
G3 X3.605 Y4.988 Z-3.557 I-0.076 J-0.238 F1000
G3 X3.757 Y5.464 Z-3.585 I0.076 J0.238 F1000
G3 X3.605 Y4.988 Z-3.612 I-0.076 J-0.238 F1000
G3 X3.757 Y5.464 Z-3.640 I0.076 J0.238 F1000
G3 X3.605 Y4.988 Z-3.667 I-0.076 J-0.238 F1000
G3 X3.757 Y5.464 Z-3.694 I0.076 J0.238 F1000
G3 X3.605 Y4.988 Z-3.722 I-0.076 J-0.238 F1000
G3 X3.757 Y5.464 Z-3.749 I0.076 J0.238 F1000
G3 X3.605 Y4.988 Z-3.777 I-0.076 J-0.238 F1000
G3 X3.757 Y5.464 Z-3.804 I0.076 J0.238 F1000
G3 X3.605 Y4.988 Z-3.832 I-0.076 J-0.238 F1000
G3 X3.757 Y5.464 Z-3.859 I0.076 J0.238 F1000
G3 X3.605 Y4.988 Z-3.886 I-0.076 J-0.238 F1000
G3 X3.757 Y5.464 Z-3.914 I0.076 J0.238 F1000
G3 X3.605 Y4.988 Z-3.941 I-0.076 J-0.238 F1000
G3 X3.757 Y5.464 Z-3.969 I0.076 J0.238 F1000
G3 X3.605 Y4.988 Z-3.996 I-0.076 J-0.238 F1000
G3 X3.712 Y4.978 Z-4.000 I0.076 J0.238 F1000
G1 X3.719 Y4.979 Z-4.000 F1000
G1 X3.867 Y5.002 Z-4.000 F1000
G3 X4.035 Y5.229 Z-4.000 I-0.030 J0.198 F1000
G1 X4.024 Y5.299 Z-4.001 F1000
G1 X4.008 Y5.404 Z-4.002 F1000
G1 X4.001 Y5.509 Z-4.003 F1000
G1 X4.001 Y15.787 Z-4.106 F1000
G1 X4.002 Y15.891 Z-4.107 F1000
G1 X4.011 Y15.996 Z-4.108 F1000
G1 X4.021 Y16.101 Z-4.109 F1000
G1 X4.035 Y16.167 Z-4.109 F1000
G1 X4.043 Y16.206 Z-4.110 F1000
G1 X4.072 Y16.311 Z-4.111 F1000
G1 X4.105 Y16.416 Z-4.112 F1000
G1 X4.273 Y16.940 Z-4.118 F1000
G1 X4.307 Y17.045 Z-4.119 F1000
G1 X4.343 Y17.150 Z-4.120 F1000
G1 X4.349 Y17.166 Z-4.120 F1000
G1 X4.383 Y17.255 Z-4.121 F1000
G1 X4.428 Y17.360 Z-4.122 F1000
G1 X4.453 Y17.413 Z-4.123 F1000
G1 X4.627 Y17.779 Z-4.127 F1000
G1 X4.663 Y17.855 Z-4.128 F1000
G1 X4.677 Y17.884 Z-4.128 F1000
G1 X4.736 Y17.989 Z-4.129 F1000
G1 X4.767 Y18.036 Z-4.130 F1000
G1 X4.811 Y18.094 Z-4.130 F1000
G1 X4.982 Y18.303 Z-4.133 F1000
G1 X5.072 Y18.408 Z-4.134 F1000
G1 X5.081 Y18.418 Z-4.135 F1000
G1 X5.133 Y18.460 Z-4.135 F1000
G1 X5.186 Y18.489 Z-4.136 F1000
G1 X5.395 Y18.573 Z-4.138 F1000
G1 X5.500 Y18.599 Z-4.139 F1000
G1 X14.500 Y18.599 Z-4.229 F1000
G1 X14.605 Y18.573 Z-4.230 F1000
G1 X14.814 Y18.489 Z-4.233 F1000
G1 X14.867 Y18.460 Z-4.233 F1000
G1 X14.919 Y18.418 Z-4.234 F1000
G1 X14.928 Y18.408 Z-4.234 F1000
G1 X15.018 Y18.303 Z-4.235 F1000
G1 X15.189 Y18.094 Z-4.238 F1000
G1 X15.233 Y18.036 Z-4.239 F1000
G1 X15.264 Y17.989 Z-4.239 F1000
G1 X15.323 Y17.884 Z-4.241 F1000
G1 X15.337 Y17.855 Z-4.241 F1000
G1 X15.373 Y17.779 Z-4.242 F1000
G1 X15.547 Y17.413 Z-4.246 F1000
G1 X15.572 Y17.360 Z-4.246 F1000
G1 X15.617 Y17.255 Z-4.248 F1000
G1 X15.651 Y17.166 Z-4.248 F1000
G1 X15.657 Y17.150 Z-4.249 F1000
G1 X15.693 Y17.045 Z-4.250 F1000
G1 X15.727 Y16.940 Z-4.251 F1000
G1 X15.895 Y16.416 Z-4.256 F1000
G1 X15.928 Y16.311 Z-4.257 F1000
G1 X15.957 Y16.206 Z-4.259 F1000
G1 X15.965 Y16.167 Z-4.259 F1000
G1 X15.979 Y16.101 Z-4.260 F1000
G1 X15.989 Y15.996 Z-4.261 F1000
G1 X15.998 Y15.891 Z-4.262 F1000
G1 X15.999 Y15.787 Z-4.263 F1000
G1 X15.999 Y5.509 Z-4.366 F1000
G1 X15.992 Y5.404 Z-4.367 F1000
G1 X15.976 Y5.299 Z-4.368 F1000
G1 X15.960 Y5.195 Z-4.369 F1000
G1 X15.950 Y5.142 Z-4.369 F1000
G1 X15.935 Y5.090 Z-4.370 F1000
G1 X15.895 Y4.985 Z-4.371 F1000
G1 X15.854 Y4.880 Z-4.372 F1000
G1 X15.809 Y4.775 Z-4.373 F1000
G1 X15.785 Y4.732 Z-4.374 F1000
G1 X15.756 Y4.688 Z-4.374 F1000
G1 X15.743 Y4.670 Z-4.375 F1000
G1 X15.664 Y4.565 Z-4.376 F1000
G1 X15.651 Y4.550 Z-4.376 F1000
G1 X15.577 Y4.460 Z-4.377 F1000
G1 X15.547 Y4.431 Z-4.378 F1000
G1 X15.500 Y4.391 Z-4.378 F1000
G1 X15.452 Y4.356 Z-4.379 F1000
G1 X15.233 Y4.200 Z-4.382 F1000
G1 X15.189 Y4.170 Z-4.382 F1000
G1 X15.145 Y4.146 Z-4.383 F1000
G1 X15.128 Y4.138 Z-4.383 F1000
G1 X15.076 Y4.117 Z-4.383 F1000
G1 X15.024 Y4.101 Z-4.384 F1000
G1 X14.919 Y4.075 Z-4.385 F1000
G1 X14.783 Y4.041 Z-4.386 F1000
G1 X14.710 Y4.023 Z-4.387 F1000
G1 X14.605 Y4.006 Z-4.388 F1000
G1 X14.500 Y4.001 Z-4.389 F1000
G1 X5.500 Y4.001 Z-4.479 F1000
G1 X5.395 Y4.006 Z-4.480 F1000
G1 X5.290 Y4.023 Z-4.481 F1000
G1 X5.217 Y4.041 Z-4.482 F1000
G1 X5.081 Y4.075 Z-4.484 F1000
G1 X4.976 Y4.101 Z-4.485 F1000
G1 X4.924 Y4.117 Z-4.485 F1000
G1 X4.872 Y4.138 Z-4.486 F1000
G1 X4.855 Y4.146 Z-4.486 F1000
G1 X4.811 Y4.170 Z-4.486 F1000
G1 X4.767 Y4.200 Z-4.487 F1000
G1 X4.548 Y4.356 Z-4.490 F1000
G1 X4.500 Y4.391 Z-4.490 F1000
G1 X4.453 Y4.431 Z-4.491 F1000
G1 X4.423 Y4.460 Z-4.491 F1000
G1 X4.349 Y4.550 Z-4.492 F1000
G1 X4.336 Y4.565 Z-4.493 F1000
G1 X4.257 Y4.670 Z-4.494 F1000
G1 X4.244 Y4.688 Z-4.494 F1000
G1 X4.215 Y4.732 Z-4.495 F1000
G1 X4.191 Y4.775 Z-4.495 F1000
G1 X4.146 Y4.880 Z-4.496 F1000
G1 X4.105 Y4.985 Z-4.497 F1000
G1 X4.065 Y5.090 Z-4.499 F1000
G1 X4.050 Y5.142 Z-4.499 F1000
G1 X4.040 Y5.195 Z-4.500 F1000
G1 X4.035 Y5.229 Z-4.500 F1000
G1 X4.019 Y5.322 Z-4.501 F1000
G1 X4.004 Y5.415 Z-4.502 F1000
G1 X3.998 Y5.487 Z-4.502 F1000
G1 X3.997 Y5.559 Z-4.503 F1000
G1 X3.993 Y5.957 Z-4.506 F1000
G1 X3.988 Y6.356 Z-4.510 F1000
G1 X3.984 Y6.754 Z-4.513 F1000
G1 X3.980 Y7.153 Z-4.517 F1000
G1 X3.975 Y7.551 Z-4.521 F1000
G1 X3.971 Y7.950 Z-4.524 F1000
G1 X3.965 Y8.547 Z-4.529 F1000
G1 X3.891 Y15.720 Z-4.593 F1000
G1 X3.891 Y15.896 Z-4.594 F1000
G1 X3.901 Y16.058 Z-4.596 F1000
G1 X3.915 Y16.155 Z-4.597 F1000
G1 X3.934 Y16.251 Z-4.597 F1000
G1 X3.977 Y16.446 Z-4.599 F1000
G1 X4.023 Y16.640 Z-4.601 F1000
G1 X4.048 Y16.737 Z-4.602 F1000
G1 X4.075 Y16.833 Z-4.603 F1000
G1 X4.132 Y17.024 Z-4.604 F1000
G1 X4.188 Y17.206 Z-4.606 F1000
G1 X4.300 Y17.573 Z-4.610 F1000
G1 X4.331 Y17.668 Z-4.610 F1000
G1 X4.364 Y17.763 Z-4.611 F1000
G1 X4.400 Y17.857 Z-4.612 F1000
G1 X4.439 Y17.950 Z-4.613 F1000
G1 X4.523 Y18.135 Z-4.615 F1000
G1 X4.603 Y18.315 Z-4.617 F1000
G1 X4.678 Y18.478 Z-4.619 F1000
G1 X4.718 Y18.557 Z-4.619 F1000
G1 X4.764 Y18.633 Z-4.620 F1000
G1 X4.824 Y18.718 Z-4.622 F1000
G1 X4.887 Y18.801 Z-4.623 F1000
G1 X5.024 Y18.969 Z-4.623 F1000
G1 X5.052 Y19.003 Z-4.623 F1000
G1 X5.082 Y19.034 Z-4.623 F1000
G1 X5.098 Y19.048 Z-4.623 F1000
G1 X5.115 Y19.062 Z-4.623 F1000
G1 X5.133 Y19.075 Z-4.623 F1000
G1 X5.151 Y19.087 Z-4.623 F1000
G1 X5.170 Y19.097 Z-4.623 F1000
G1 X5.190 Y19.106 Z-4.623 F1000
G1 X5.412 Y19.195 Z-4.623 F1000
G1 X5.432 Y19.203 Z-4.623 F1000
G1 X5.442 Y19.206 Z-4.623 F1000
G1 X5.452 Y19.209 Z-4.623 F1000
G1 X5.463 Y19.211 Z-4.623 F1000
G1 X5.473 Y19.213 Z-4.623 F1000
G1 X5.494 Y19.215 Z-4.623 F1000
G1 X5.516 Y19.215 Z-4.623 F1000
G1 X6.108 Y19.216 Z-4.623 F1000
G1 X8.035 Y19.219 Z-4.624 F1000
G1 X13.928 Y19.229 Z-4.626 F1000
G1 X14.462 Y19.230 Z-4.626 F1000
G1 X14.505 Y19.230 Z-4.626 F1000
G1 X14.515 Y19.230 Z-4.626 F1000
G1 X14.526 Y19.229 Z-4.626 F1000
G1 X14.537 Y19.227 Z-4.626 F1000
G1 X14.547 Y19.225 Z-4.626 F1000
G1 X14.568 Y19.219 Z-4.626 F1000
G1 X14.588 Y19.211 Z-4.626 F1000
G1 X14.784 Y19.133 Z-4.626 F1000
G1 X14.824 Y19.116 Z-4.626 F1000
G1 X14.843 Y19.107 Z-4.626 F1000
G1 X14.861 Y19.096 Z-4.626 F1000
G1 X14.879 Y19.084 Z-4.626 F1000
G1 X14.896 Y19.070 Z-4.626 F1000
G1 X14.927 Y19.042 Z-4.626 F1000
G1 X14.956 Y19.010 Z-4.626 F1000
G1 X15.010 Y18.945 Z-4.626 F1000
G1 X15.160 Y18.783 Z-4.631 F1000
G1 X15.193 Y18.746 Z-4.632 F1000
G1 X15.225 Y18.708 Z-4.632 F1000
G1 X15.254 Y18.668 Z-4.633 F1000
G1 X15.281 Y18.627 Z-4.633 F1000
G1 X15.328 Y18.546 Z-4.634 F1000
G1 X15.370 Y18.463 Z-4.635 F1000
G1 X15.453 Y18.296 Z-4.637 F1000
G1 X15.542 Y18.117 Z-4.639 F1000
G1 X15.586 Y18.026 Z-4.640 F1000
G1 X15.627 Y17.933 Z-4.640 F1000
G1 X15.664 Y17.839 Z-4.641 F1000
G1 X15.697 Y17.744 Z-4.642 F1000
G1 X15.761 Y17.555 Z-4.644 F1000
G1 X15.883 Y17.190 Z-4.647 F1000
G1 X15.943 Y17.005 Z-4.649 F1000
G1 X15.997 Y16.814 Z-4.651 F1000
G1 X16.022 Y16.717 Z-4.652 F1000
G1 X16.045 Y16.620 Z-4.653 F1000
G1 X16.138 Y16.231 Z-4.656 F1000
G1 X16.157 Y16.145 Z-4.657 F1000
G1 X16.171 Y16.057 Z-4.658 F1000
G1 X16.187 Y15.879 Z-4.659 F1000
G1 X16.189 Y15.689 Z-4.661 F1000
G1 X16.212 Y13.497 Z-4.680 F1000
G1 X16.216 Y13.098 Z-4.684 F1000
G1 X16.220 Y12.700 Z-4.687 F1000
G1 X16.224 Y12.302 Z-4.691 F1000
G1 X16.228 Y11.903 Z-4.694 F1000
G1 X16.232 Y11.505 Z-4.698 F1000
G1 X16.236 Y11.106 Z-4.702 F1000
G1 X16.240 Y10.708 Z-4.705 F1000
G1 X16.243 Y10.309 Z-4.709 F1000
G1 X16.247 Y9.911 Z-4.712 F1000
G1 X16.251 Y9.512 Z-4.716 F1000
G1 X16.254 Y9.114 Z-4.719 F1000
G1 X16.258 Y8.715 Z-4.723 F1000
G1 X16.262 Y8.317 Z-4.726 F1000
G1 X16.265 Y7.918 Z-4.730 F1000
G1 X16.269 Y7.520 Z-4.733 F1000
G1 X16.272 Y7.121 Z-4.737 F1000
G1 X16.276 Y6.723 Z-4.740 F1000
G1 X16.279 Y6.324 Z-4.744 F1000
G1 X16.283 Y5.926 Z-4.747 F1000
G1 X16.286 Y5.527 Z-4.751 F1000
G1 X16.286 Y5.483 Z-4.751 F1000
G1 X16.284 Y5.439 Z-4.752 F1000
G1 X16.274 Y5.352 Z-4.752 F1000
G1 X16.252 Y5.170 Z-4.754 F1000
G1 X16.244 Y5.126 Z-4.754 F1000
G1 X16.234 Y5.082 Z-4.755 F1000
G1 X16.208 Y4.996 Z-4.755 F1000
G1 X16.150 Y4.823 Z-4.757 F1000
G1 X16.137 Y4.783 Z-4.757 F1000
G1 X16.121 Y4.743 Z-4.758 F1000
G1 X16.083 Y4.666 Z-4.759 F1000
G1 X15.991 Y4.512 Z-4.760 F1000
G1 X15.945 Y4.437 Z-4.761 F1000
G1 X15.920 Y4.401 Z-4.761 F1000
G1 X15.892 Y4.366 Z-4.762 F1000
G1 X15.860 Y4.329 Z-4.762 F1000
G1 X15.825 Y4.295 Z-4.762 F1000
G1 X15.754 Y4.228 Z-4.763 F1000
G1 X15.634 Y4.114 Z-4.765 F1000
G1 X15.565 Y4.055 Z-4.766 F1000
G1 X15.490 Y4.001 Z-4.766 F1000
G1 X15.415 Y3.954 Z-4.767 F1000
G1 X15.337 Y3.911 Z-4.768 F1000
G1 X15.167 Y3.831 Z-4.770 F1000
G1 X15.085 Y3.799 Z-4.770 F1000
G1 X15.002 Y3.772 Z-4.771 F1000
G1 X14.915 Y3.748 Z-4.772 F1000
G1 X14.826 Y3.730 Z-4.773 F1000
G1 X14.650 Y3.704 Z-4.774 F1000
G1 X14.559 Y3.694 Z-4.775 F1000
G1 X14.467 Y3.691 Z-4.776 F1000
G1 X14.069 Y3.688 Z-4.779 F1000
G1 X13.670 Y3.685 Z-4.783 F1000
G1 X13.272 Y3.682 Z-4.786 F1000
G1 X12.873 Y3.679 Z-4.790 F1000
G1 X5.504 Y3.623 Z-4.855 F1000
G1 X5.313 Y3.629 Z-4.857 F1000
G1 X5.266 Y3.633 Z-4.857 F1000
G1 X5.220 Y3.639 Z-4.857 F1000
G1 X5.128 Y3.658 Z-4.858 F1000
G1 X4.946 Y3.709 Z-4.860 F1000
G1 X4.857 Y3.734 Z-4.861 F1000
G1 X4.768 Y3.761 Z-4.861 F1000
G1 X4.724 Y3.779 Z-4.862 F1000
G1 X4.681 Y3.799 Z-4.862 F1000
G1 X4.639 Y3.822 Z-4.863 F1000
G1 X4.599 Y3.846 Z-4.863 F1000
G1 X4.438 Y3.949 Z-4.865 F1000
G1 X4.358 Y4.001 Z-4.866 F1000
G1 X4.319 Y4.028 Z-4.866 F1000
G1 X4.281 Y4.057 Z-4.866 F1000
G1 X4.213 Y4.117 Z-4.867 F1000
G1 X4.149 Y4.182 Z-4.868 F1000
G1 X4.081 Y4.254 Z-4.869 F1000
G1 X4.016 Y4.328 Z-4.870 F1000
G1 X3.961 Y4.402 Z-4.871 F1000
G1 X3.914 Y4.480 Z-4.871 F1000
G1 X3.815 Y4.646 Z-4.873 F1000
G1 X3.792 Y4.685 Z-4.873 F1000
G1 X3.771 Y4.726 Z-4.874 F1000
G1 X3.737 Y4.810 Z-4.875 F1000
G1 X3.673 Y4.994 Z-4.876 F1000
G1 X3.645 Y5.083 Z-4.877 F1000
G1 X3.635 Y5.128 Z-4.877 F1000
G1 X3.627 Y5.174 Z-4.878 F1000
G1 X3.610 Y5.371 Z-4.880 F1000
G1 X3.601 Y5.559 Z-4.881 F1000
G1 X3.524 Y15.720 Z-4.971 F1000
G1 X3.525 Y15.918 Z-4.973 F1000
G1 X3.540 Y16.115 Z-4.975 F1000
G1 X3.572 Y16.312 Z-4.976 F1000
G1 X3.666 Y16.902 Z-4.982 F1000
G1 X3.698 Y17.099 Z-4.983 F1000
G1 X3.733 Y17.295 Z-4.985 F1000
G1 X3.772 Y17.490 Z-4.987 F1000
G1 X3.814 Y17.684 Z-4.989 F1000
G1 X3.942 Y18.268 Z-4.994 F1000
G1 X3.985 Y18.463 Z-4.996 F1000
G1 X4.032 Y18.657 Z-4.997 F1000
G1 X4.058 Y18.753 Z-4.998 F1000
G1 X4.071 Y18.801 Z-4.999 F1000
G1 X4.078 Y18.825 Z-4.999 F1000
G1 X4.083 Y18.843 Z-4.999 F1000
G1 X4.085 Y18.849 Z-4.999 F1000
G1 X4.119 Y18.934 Z-5.000 F1000
G1 X4.141 Y19.031 Z-5.001 F1000
G1 X4.287 Y19.508 Z-5.005 F1000
G1 X4.345 Y19.687 Z-5.006 F1000
G1 X4.411 Y19.861 Z-5.008 F1000
G1 X4.491 Y20.040 Z-5.009 F1000
G1 X4.617 Y20.318 Z-5.012 F1000
G1 X4.659 Y20.410 Z-5.013 F1000
G1 X4.705 Y20.503 Z-5.013 F1000
G1 X4.730 Y20.548 Z-5.014 F1000
G1 X4.756 Y20.592 Z-5.014 F1000
G1 X4.816 Y20.676 Z-5.015 F1000
G1 X4.879 Y20.757 Z-5.016 F1000
G1 X4.989 Y20.898 Z-5.017 F1000
G1 X5.043 Y20.969 Z-5.018 F1000
G1 X5.073 Y21.003 Z-5.019 F1000
G1 X5.104 Y21.034 Z-5.019 F1000
G1 X5.131 Y21.056 Z-5.020 F1000
G1 X5.145 Y21.067 Z-5.020 F1000
G1 X5.160 Y21.076 Z-5.020 F1000
G1 X5.175 Y21.085 Z-5.020 F1000
G1 X5.190 Y21.092 Z-5.020 F1000
G1 X5.222 Y21.107 Z-5.021 F1000
G1 X5.348 Y21.165 Z-5.022 F1000
G1 X5.417 Y21.193 Z-5.022 F1000
G1 X5.435 Y21.200 Z-5.022 F1000
G1 X5.453 Y21.205 Z-5.022 F1000
G1 X5.462 Y21.207 Z-5.022 F1000
G1 X5.471 Y21.209 Z-5.022 F1000
G1 X5.490 Y21.211 Z-5.022 F1000
G1 X5.508 Y21.211 Z-5.022 F1000
G1 X5.934 Y21.212 Z-5.023 F1000
G1 X14.490 Y21.235 Z-5.027 F1000
G1 X14.509 Y21.235 Z-5.027 F1000
G1 X14.518 Y21.234 Z-5.027 F1000
G1 X14.528 Y21.233 Z-5.027 F1000
G1 X14.537 Y21.231 Z-5.027 F1000
G1 X14.547 Y21.229 Z-5.027 F1000
G1 X14.565 Y21.224 Z-5.027 F1000
G1 X14.582 Y21.218 Z-5.027 F1000
G1 X14.757 Y21.148 Z-5.027 F1000
G1 X14.814 Y21.128 Z-5.028 F1000
G1 X14.828 Y21.122 Z-5.028 F1000
G1 X14.842 Y21.116 Z-5.028 F1000
G1 X14.856 Y21.109 Z-5.028 F1000
G1 X14.869 Y21.101 Z-5.028 F1000
G1 X14.894 Y21.084 Z-5.029 F1000
G1 X14.917 Y21.064 Z-5.029 F1000
G1 X14.940 Y21.043 Z-5.029 F1000
G1 X14.961 Y21.021 Z-5.030 F1000
G1 X15.077 Y20.887 Z-5.031 F1000
G1 X15.143 Y20.810 Z-5.032 F1000
G1 X15.209 Y20.733 Z-5.033 F1000
G1 X15.240 Y20.692 Z-5.033 F1000
G1 X15.269 Y20.650 Z-5.034 F1000
G1 X15.321 Y20.561 Z-5.034 F1000
G1 X15.367 Y20.470 Z-5.035 F1000
G1 X15.412 Y20.378 Z-5.036 F1000
G1 X15.548 Y20.103 Z-5.039 F1000
G1 X15.593 Y20.011 Z-5.039 F1000
G1 X15.664 Y19.836 Z-5.041 F1000
G1 X15.725 Y19.658 Z-5.042 F1000
G1 X15.882 Y19.188 Z-5.046 F1000
G1 X15.914 Y19.093 Z-5.047 F1000
G1 X15.944 Y18.997 Z-5.048 F1000
G1 X15.972 Y18.900 Z-5.049 F1000
G1 X15.998 Y18.804 Z-5.050 F1000
G1 X16.022 Y18.707 Z-5.050 F1000
G1 X16.068 Y18.515 Z-5.052 F1000
G1 X16.204 Y17.946 Z-5.057 F1000
G1 X16.249 Y17.752 Z-5.058 F1000
G1 X16.269 Y17.654 Z-5.059 F1000
G1 X16.288 Y17.556 Z-5.060 F1000
G1 X16.324 Y17.360 Z-5.061 F1000
G1 X16.460 Y16.579 Z-5.068 F1000
G1 X16.493 Y16.385 Z-5.069 F1000
G1 X16.524 Y16.189 Z-5.071 F1000
G1 X16.545 Y15.995 Z-5.073 F1000
G1 X16.552 Y15.809 Z-5.074 F1000
G1 X16.555 Y15.214 Z-5.079 F1000
G1 X16.559 Y14.616 Z-5.084 F1000
G1 X16.562 Y14.019 Z-5.088 F1000
G1 X16.564 Y13.421 Z-5.093 F1000
G1 X16.568 Y12.624 Z-5.099 F1000
G1 X16.603 Y5.653 Z-5.155 F1000
G1 X16.603 Y5.459 Z-5.157 F1000
G1 X16.592 Y5.266 Z-5.158 F1000
G1 X16.585 Y5.181 Z-5.159 F1000
G1 X16.579 Y5.139 Z-5.159 F1000
G1 X16.570 Y5.097 Z-5.160 F1000
G1 X16.521 Y4.916 Z-5.161 F1000
G1 X16.497 Y4.829 Z-5.162 F1000
G1 X16.468 Y4.744 Z-5.163 F1000
G1 X16.448 Y4.699 Z-5.163 F1000
G1 X16.427 Y4.655 Z-5.163 F1000
G1 X16.384 Y4.567 Z-5.164 F1000
G1 X16.307 Y4.413 Z-5.165 F1000
G1 X16.282 Y4.370 Z-5.166 F1000
G1 X16.256 Y4.330 Z-5.166 F1000
G1 X16.199 Y4.251 Z-5.167 F1000
G1 X16.098 Y4.119 Z-5.168 F1000
G1 X16.034 Y4.044 Z-5.169 F1000
G1 X15.998 Y4.009 Z-5.169 F1000
G1 X15.961 Y3.976 Z-5.170 F1000
G1 X15.754 Y3.803 Z-5.172 F1000
G1 X15.680 Y3.744 Z-5.173 F1000
G1 X15.604 Y3.694 Z-5.173 F1000
G1 X15.524 Y3.650 Z-5.174 F1000
G1 X15.357 Y3.570 Z-5.176 F1000
G1 X15.269 Y3.530 Z-5.176 F1000
G1 X15.179 Y3.494 Z-5.177 F1000
G1 X15.095 Y3.467 Z-5.178 F1000
G1 X15.010 Y3.445 Z-5.179 F1000
G1 X14.825 Y3.411 Z-5.180 F1000
G1 X14.643 Y3.382 Z-5.182 F1000
G1 X14.597 Y3.378 Z-5.182 F1000
G1 X14.550 Y3.377 Z-5.182 F1000
G1 X14.457 Y3.380 Z-5.183 F1000
G1 X5.694 Y3.337 Z-5.253 F1000
G1 X5.497 Y3.335 Z-5.255 F1000
G1 X5.449 Y3.334 Z-5.255 F1000
G1 X5.401 Y3.336 Z-5.255 F1000
G1 X5.306 Y3.344 Z-5.256 F1000
G1 X5.212 Y3.355 Z-5.257 F1000
G1 X5.119 Y3.369 Z-5.258 F1000
G1 X5.025 Y3.388 Z-5.258 F1000
G1 X4.933 Y3.413 Z-5.259 F1000
G1 X4.758 Y3.466 Z-5.261 F1000
G1 X4.667 Y3.498 Z-5.261 F1000
G1 X4.578 Y3.536 Z-5.262 F1000
G1 X4.495 Y3.580 Z-5.263 F1000
G1 X4.415 Y3.627 Z-5.264 F1000
G1 X4.253 Y3.726 Z-5.265 F1000
G1 X4.180 Y3.780 Z-5.266 F1000
G1 X4.109 Y3.838 Z-5.267 F1000
G1 X4.034 Y3.901 Z-5.267 F1000
G1 X3.961 Y3.966 Z-5.268 F1000
G1 X3.925 Y4.001 Z-5.268 F1000
G1 X3.891 Y4.037 Z-5.269 F1000
G1 X3.830 Y4.115 Z-5.270 F1000
G1 X3.725 Y4.258 Z-5.271 F1000
G1 X3.667 Y4.336 Z-5.272 F1000
G1 X3.640 Y4.376 Z-5.272 F1000
G1 X3.615 Y4.418 Z-5.273 F1000
G1 X3.531 Y4.582 Z-5.274 F1000
G1 X3.488 Y4.671 Z-5.275 F1000
G1 X3.449 Y4.762 Z-5.276 F1000
G1 X3.435 Y4.805 Z-5.276 F1000
G1 X3.422 Y4.849 Z-5.276 F1000
G1 X3.400 Y4.937 Z-5.277 F1000
G1 X3.355 Y5.127 Z-5.279 F1000
G1 X3.347 Y5.172 Z-5.279 F1000
G1 X3.342 Y5.217 Z-5.279 F1000
G1 X3.333 Y5.307 Z-5.280 F1000
G1 X3.325 Y5.406 Z-5.281 F1000
G1 X3.320 Y5.505 Z-5.282 F1000
G1 X3.317 Y6.100 Z-5.286 F1000
G1 X3.308 Y7.892 Z-5.301 F1000
G1 X3.305 Y8.490 Z-5.305 F1000
G1 X3.303 Y9.087 Z-5.310 F1000
G1 X3.300 Y9.685 Z-5.315 F1000
G1 X3.297 Y10.282 Z-5.320 F1000
G1 X3.294 Y10.880 Z-5.325 F1000
G1 X3.292 Y11.477 Z-5.329 F1000
G1 X3.289 Y12.075 Z-5.334 F1000
G1 X3.286 Y12.672 Z-5.339 F1000
G1 X3.284 Y13.270 Z-5.344 F1000
G1 X3.281 Y13.867 Z-5.348 F1000
G1 X3.279 Y14.465 Z-5.353 F1000
G1 X3.276 Y15.062 Z-5.358 F1000
G1 X3.274 Y15.660 Z-5.363 F1000
G1 X3.273 Y15.859 Z-5.364 F1000
G1 X3.281 Y16.054 Z-5.366 F1000
G1 X3.302 Y16.252 Z-5.368 F1000
G1 X3.325 Y16.449 Z-5.369 F1000
G1 X3.416 Y17.238 Z-5.375 F1000
G1 X3.439 Y17.436 Z-5.377 F1000
G1 X3.463 Y17.634 Z-5.379 F1000
G1 X3.490 Y17.831 Z-5.380 F1000
G1 X3.519 Y18.028 Z-5.382 F1000
G1 X3.551 Y18.224 Z-5.383 F1000
G1 X3.677 Y19.008 Z-5.390 F1000
G1 X3.710 Y19.204 Z-5.391 F1000
G1 X3.746 Y19.400 Z-5.393 F1000
G1 X3.786 Y19.595 Z-5.395 F1000
G1 X3.871 Y19.979 Z-5.398 F1000
G1 X3.957 Y20.367 Z-5.401 F1000
G1 X4.001 Y20.562 Z-5.402 F1000
G1 X4.050 Y20.755 Z-5.404 F1000
G1 X4.105 Y20.945 Z-5.406 F1000
G1 X4.162 Y21.131 Z-5.407 F1000
G1 X4.219 Y21.317 Z-5.409 F1000
G1 X4.277 Y21.508 Z-5.411 F1000
G1 X4.311 Y21.613 Z-5.411 F1000
G1 X4.348 Y21.718 Z-5.411 F1000
G1 X4.388 Y21.821 Z-5.411 F1000
G1 X4.432 Y21.923 Z-5.411 F1000
G1 X4.480 Y22.023 Z-5.411 F1000
G1 X4.622 Y22.324 Z-5.411 F1000
G1 X4.670 Y22.424 Z-5.411 F1000
G1 X4.723 Y22.522 Z-5.411 F1000
G1 X4.753 Y22.570 Z-5.411 F1000
G1 X4.785 Y22.615 Z-5.411 F1000
G1 X4.855 Y22.702 Z-5.411 F1000
G1 X5.031 Y22.918 Z-5.411 F1000
G1 X5.069 Y22.960 Z-5.411 F1000
G1 X5.089 Y22.980 Z-5.411 F1000
G1 X5.110 Y22.998 Z-5.411 F1000
G1 X5.133 Y23.015 Z-5.411 F1000
G1 X5.144 Y23.023 Z-5.411 F1000
G1 X5.156 Y23.030 Z-5.411 F1000
G1 X5.181 Y23.042 Z-5.411 F1000
G1 X5.207 Y23.053 Z-5.411 F1000
G1 X5.416 Y23.136 Z-5.411 F1000
G1 X5.429 Y23.142 Z-5.411 F1000
G1 X5.443 Y23.146 Z-5.411 F1000
G1 X5.456 Y23.150 Z-5.411 F1000
G1 X5.470 Y23.152 Z-5.411 F1000
G1 X5.484 Y23.154 Z-5.411 F1000
G1 X5.499 Y23.155 Z-5.411 F1000
G1 X5.584 Y23.155 Z-5.411 F1000
G1 X6.910 Y23.156 Z-5.411 F1000
G1 X13.130 Y23.161 Z-5.412 F1000
G1 X14.494 Y23.162 Z-5.413 F1000
G1 X14.508 Y23.162 Z-5.413 F1000
G1 X14.523 Y23.161 Z-5.413 F1000
G1 X14.537 Y23.159 Z-5.413 F1000
G1 X14.551 Y23.156 Z-5.413 F1000
G1 X14.565 Y23.152 Z-5.413 F1000
G1 X14.578 Y23.147 Z-5.413 F1000
G1 X14.815 Y23.052 Z-5.413 F1000
G1 X14.841 Y23.040 Z-5.413 F1000
G1 X14.853 Y23.033 Z-5.413 F1000
G1 X14.865 Y23.025 Z-5.413 F1000
G1 X14.888 Y23.008 Z-5.413 F1000
G1 X14.909 Y22.990 Z-5.413 F1000
G1 X14.930 Y22.971 Z-5.413 F1000
G1 X14.967 Y22.929 Z-5.413 F1000
G1 X15.179 Y22.670 Z-5.413 F1000
G1 X15.214 Y22.626 Z-5.413 F1000
G1 X15.246 Y22.581 Z-5.413 F1000
G1 X15.304 Y22.485 Z-5.413 F1000
G1 X15.354 Y22.385 Z-5.413 F1000
G1 X15.544 Y21.983 Z-5.413 F1000
G1 X15.591 Y21.882 Z-5.413 F1000
G1 X15.633 Y21.779 Z-5.413 F1000
G1 X15.672 Y21.674 Z-5.413 F1000
G1 X15.707 Y21.569 Z-5.413 F1000
G1 X15.741 Y21.463 Z-5.413 F1000
G1 X15.803 Y21.276 Z-5.415 F1000
G1 X15.865 Y21.091 Z-5.416 F1000
G1 X15.927 Y20.904 Z-5.418 F1000
G1 X15.983 Y20.713 Z-5.420 F1000
G1 X16.032 Y20.520 Z-5.421 F1000
G1 X16.170 Y19.940 Z-5.426 F1000
G1 X16.216 Y19.748 Z-5.427 F1000
G1 X16.259 Y19.554 Z-5.429 F1000
G1 X16.298 Y19.359 Z-5.431 F1000
G1 X16.333 Y19.163 Z-5.432 F1000
G1 X16.469 Y18.379 Z-5.439 F1000
G1 X16.502 Y18.183 Z-5.440 F1000
G1 X16.532 Y17.986 Z-5.442 F1000
G1 X16.559 Y17.789 Z-5.443 F1000
G1 X16.584 Y17.591 Z-5.445 F1000
G1 X16.682 Y16.801 Z-5.451 F1000
G1 X16.706 Y16.604 Z-5.453 F1000
G1 X16.728 Y16.406 Z-5.455 F1000
G1 X16.747 Y16.208 Z-5.456 F1000
G1 X16.764 Y16.009 Z-5.458 F1000
G1 X16.770 Y15.811 Z-5.459 F1000
G1 X16.786 Y11.031 Z-5.498 F1000
G1 X16.786 Y10.832 Z-5.499 F1000
G1 X16.785 Y10.720 Z-5.500 F1000
G1 X16.787 Y10.520 Z-5.501 F1000
G1 X16.803 Y5.529 Z-5.538 F1000
G1 X16.798 Y5.344 Z-5.540 F1000
G1 X16.793 Y5.246 Z-5.541 F1000
G1 X16.787 Y5.197 Z-5.541 F1000
G1 X16.779 Y5.149 Z-5.541 F1000
G1 X16.743 Y4.966 Z-5.543 F1000
G1 X16.722 Y4.875 Z-5.543 F1000
G1 X16.710 Y4.830 Z-5.544 F1000
G1 X16.695 Y4.785 Z-5.544 F1000
G1 X16.626 Y4.619 Z-5.545 F1000
G1 X16.589 Y4.529 Z-5.546 F1000
G1 X16.569 Y4.484 Z-5.546 F1000
G1 X16.548 Y4.440 Z-5.547 F1000
G1 X16.500 Y4.355 Z-5.548 F1000
G1 X16.449 Y4.273 Z-5.548 F1000
G1 X16.352 Y4.118 Z-5.550 F1000
G1 X16.325 Y4.080 Z-5.550 F1000
G1 X16.295 Y4.043 Z-5.550 F1000
G1 X16.232 Y3.973 Z-5.551 F1000
G1 X16.101 Y3.841 Z-5.552 F1000
G1 X16.032 Y3.773 Z-5.553 F1000
G1 X15.957 Y3.710 Z-5.554 F1000
G1 X15.809 Y3.599 Z-5.555 F1000
G1 X15.732 Y3.544 Z-5.556 F1000
G1 X15.693 Y3.517 Z-5.556 F1000
G1 X15.652 Y3.493 Z-5.557 F1000
G1 X15.571 Y3.451 Z-5.557 F1000
G1 X15.487 Y3.414 Z-5.558 F1000
G1 X15.307 Y3.335 Z-5.559 F1000
G1 X15.219 Y3.299 Z-5.560 F1000
G1 X15.174 Y3.284 Z-5.560 F1000
G1 X15.129 Y3.271 Z-5.561 F1000
G1 X14.949 Y3.235 Z-5.562 F1000
G1 X14.761 Y3.201 Z-5.564 F1000
G1 X14.666 Y3.190 Z-5.564 F1000
G1 X14.571 Y3.187 Z-5.565 F1000
G1 X14.376 Y3.186 Z-5.566 F1000
G1 X5.591 Y3.159 Z-5.631 F1000
G1 X5.398 Y3.159 Z-5.633 F1000
G1 X5.301 Y3.164 Z-5.634 F1000
G1 X5.252 Y3.170 Z-5.634 F1000
G1 X5.204 Y3.178 Z-5.634 F1000
G1 X5.014 Y3.213 Z-5.636 F1000
G1 X4.922 Y3.230 Z-5.636 F1000
G1 X4.832 Y3.252 Z-5.637 F1000
G1 X4.741 Y3.283 Z-5.638 F1000
G1 X4.652 Y3.319 Z-5.639 F1000
G1 X4.475 Y3.395 Z-5.640 F1000
G1 X4.388 Y3.435 Z-5.641 F1000
G1 X4.345 Y3.457 Z-5.641 F1000
G1 X4.304 Y3.481 Z-5.641 F1000
G1 X4.224 Y3.534 Z-5.642 F1000
G1 X4.147 Y3.592 Z-5.643 F1000
G1 X3.997 Y3.703 Z-5.644 F1000
G1 X3.919 Y3.765 Z-5.645 F1000
G1 X3.883 Y3.798 Z-5.645 F1000
G1 X3.848 Y3.833 Z-5.646 F1000
G1 X3.785 Y3.901 Z-5.646 F1000
G1 X3.724 Y3.969 Z-5.647 F1000
G1 X3.661 Y4.044 Z-5.648 F1000
G1 X3.631 Y4.082 Z-5.648 F1000
G1 X3.602 Y4.122 Z-5.648 F1000
G1 X3.501 Y4.281 Z-5.650 F1000
G1 X3.399 Y4.449 Z-5.651 F1000
G1 X3.378 Y4.491 Z-5.652 F1000
G1 X3.359 Y4.533 Z-5.652 F1000
G1 X3.324 Y4.620 Z-5.653 F1000
G1 X3.255 Y4.803 Z-5.654 F1000
G1 X3.241 Y4.848 Z-5.654 F1000
G1 X3.229 Y4.894 Z-5.655 F1000
G1 X3.211 Y4.987 Z-5.655 F1000
G1 X3.175 Y5.176 Z-5.657 F1000
G1 X3.161 Y5.271 Z-5.658 F1000
G1 X3.154 Y5.367 Z-5.658 F1000
G1 X3.147 Y5.561 Z-5.660 F1000
G1 X3.145 Y6.160 Z-5.664 F1000
G1 X3.144 Y6.759 Z-5.669 F1000
G1 X3.142 Y7.358 Z-5.673 F1000
G1 X3.140 Y7.957 Z-5.677 F1000
G1 X3.138 Y8.556 Z-5.682 F1000
G1 X3.137 Y9.155 Z-5.686 F1000
G1 X3.135 Y9.754 Z-5.691 F1000
G1 X3.133 Y10.353 Z-5.695 F1000
G1 X3.132 Y10.952 Z-5.700 F1000
G1 X3.130 Y11.551 Z-5.704 F1000
G1 X3.129 Y12.150 Z-5.709 F1000
G1 X3.127 Y12.749 Z-5.713 F1000
G1 X3.126 Y13.348 Z-5.717 F1000
G1 X3.124 Y13.947 Z-5.722 F1000
G1 X3.123 Y14.546 Z-5.726 F1000
G1 X3.121 Y15.145 Z-5.731 F1000
G1 X3.120 Y15.744 Z-5.735 F1000
G1 X3.122 Y15.941 Z-5.737 F1000
G1 X3.133 Y16.140 Z-5.738 F1000
G1 X3.148 Y16.339 Z-5.740 F1000
G1 X3.163 Y16.538 Z-5.741 F1000
G1 X3.241 Y17.531 Z-5.748 F1000
G1 X3.257 Y17.730 Z-5.750 F1000
G1 X3.276 Y17.928 Z-5.751 F1000
G1 X3.296 Y18.127 Z-5.753 F1000
G1 X3.307 Y18.226 Z-5.754 F1000
G1 X3.319 Y18.326 Z-5.754 F1000
G1 X3.433 Y19.314 Z-5.762 F1000
G1 X3.457 Y19.511 Z-5.763 F1000
G1 X3.483 Y19.709 Z-5.765 F1000
G1 X3.512 Y19.906 Z-5.766 F1000
G1 X3.528 Y20.005 Z-5.767 F1000
G1 X3.670 Y20.888 Z-5.774 F1000
G1 X3.703 Y21.082 Z-5.775 F1000
G1 X3.738 Y21.278 Z-5.776 F1000
G1 X3.757 Y21.376 Z-5.777 F1000
G1 X3.778 Y21.473 Z-5.778 F1000
G1 X3.799 Y21.571 Z-5.779 F1000
G1 X3.949 Y22.249 Z-5.784 F1000
G1 X3.992 Y22.441 Z-5.785 F1000
G1 X4.039 Y22.629 Z-5.787 F1000
G1 X4.065 Y22.726 Z-5.787 F1000
G1 X4.094 Y22.821 Z-5.788 F1000
G1 X4.153 Y23.013 Z-5.790 F1000
G1 X4.211 Y23.204 Z-5.791 F1000
G1 X4.269 Y23.392 Z-5.793 F1000
G1 X4.327 Y23.576 Z-5.794 F1000
G1 X4.392 Y23.755 Z-5.796 F1000
G1 X4.469 Y23.934 Z-5.798 F1000
G1 X4.641 Y24.298 Z-5.798 F1000
G1 X4.685 Y24.389 Z-5.798 F1000
G1 X4.735 Y24.477 Z-5.798 F1000
G1 X4.763 Y24.519 Z-5.798 F1000
G1 X4.793 Y24.560 Z-5.798 F1000
G1 X4.857 Y24.638 Z-5.798 F1000
G1 X5.022 Y24.841 Z-5.798 F1000
G1 X5.056 Y24.880 Z-5.798 F1000
G1 X5.093 Y24.917 Z-5.798 F1000
G1 X5.113 Y24.934 Z-5.798 F1000
G1 X5.134 Y24.950 Z-5.798 F1000
G1 X5.157 Y24.964 Z-5.798 F1000
G1 X5.168 Y24.970 Z-5.798 F1000
G1 X5.180 Y24.975 Z-5.798 F1000
G1 X5.229 Y24.995 Z-5.798 F1000
G1 X5.328 Y25.030 Z-5.798 F1000
G1 X5.378 Y25.046 Z-5.798 F1000
G1 X5.403 Y25.055 Z-5.798 F1000
G1 X5.429 Y25.062 Z-5.798 F1000
G1 X5.455 Y25.067 Z-5.798 F1000
G1 X5.468 Y25.069 Z-5.798 F1000
G1 X5.481 Y25.070 Z-5.798 F1000
G1 X5.534 Y25.071 Z-5.798 F1000
G1 X7.628 Y25.071 Z-5.798 F1000
G1 X13.933 Y25.073 Z-5.798 F1000
G1 X14.494 Y25.073 Z-5.799 F1000
G1 X14.520 Y25.072 Z-5.799 F1000
G1 X14.546 Y25.070 Z-5.799 F1000
G1 X14.559 Y25.067 Z-5.799 F1000
G1 X14.572 Y25.064 Z-5.799 F1000
G1 X14.622 Y25.049 Z-5.799 F1000
G1 X14.721 Y25.017 Z-5.799 F1000
G1 X14.770 Y24.999 Z-5.799 F1000
G1 X14.819 Y24.979 Z-5.799 F1000
G1 X14.843 Y24.967 Z-5.799 F1000
G1 X14.855 Y24.961 Z-5.799 F1000
G1 X14.866 Y24.953 Z-5.799 F1000
G1 X14.887 Y24.938 Z-5.799 F1000
G1 X14.908 Y24.921 Z-5.799 F1000
G1 X14.945 Y24.884 Z-5.799 F1000
G1 X14.979 Y24.844 Z-5.799 F1000
G1 X15.172 Y24.607 Z-5.799 F1000
G1 X15.204 Y24.568 Z-5.799 F1000
G1 X15.233 Y24.528 Z-5.799 F1000
G1 X15.287 Y24.444 Z-5.799 F1000
G1 X15.334 Y24.355 Z-5.799 F1000
G1 X15.377 Y24.265 Z-5.799 F1000
G1 X15.462 Y24.084 Z-5.799 F1000
G1 X15.553 Y23.907 Z-5.801 F1000
G1 X15.633 Y23.729 Z-5.803 F1000
G1 X15.699 Y23.552 Z-5.805 F1000
G1 X15.791 Y23.274 Z-5.807 F1000
G1 X15.823 Y23.179 Z-5.808 F1000
G1 X15.886 Y22.988 Z-5.809 F1000
G1 X15.918 Y22.893 Z-5.810 F1000
G1 X15.947 Y22.797 Z-5.811 F1000
G1 X16.000 Y22.605 Z-5.812 F1000
G1 X16.047 Y22.415 Z-5.813 F1000
G1 X16.207 Y21.742 Z-5.819 F1000
G1 X16.230 Y21.644 Z-5.819 F1000
G1 X16.252 Y21.547 Z-5.820 F1000
G1 X16.272 Y21.449 Z-5.821 F1000
G1 X16.309 Y21.252 Z-5.822 F1000
G1 X16.343 Y21.056 Z-5.824 F1000
G1 X16.462 Y20.373 Z-5.829 F1000
G1 X16.479 Y20.275 Z-5.830 F1000
G1 X16.496 Y20.176 Z-5.830 F1000
G1 X16.511 Y20.077 Z-5.831 F1000
G1 X16.540 Y19.880 Z-5.833 F1000
G1 X16.566 Y19.682 Z-5.834 F1000
G1 X16.689 Y18.694 Z-5.841 F1000
G1 X16.701 Y18.595 Z-5.842 F1000
G1 X16.713 Y18.496 Z-5.843 F1000
G1 X16.734 Y18.297 Z-5.844 F1000
G1 X16.753 Y18.098 Z-5.846 F1000
G1 X16.770 Y17.900 Z-5.847 F1000
G1 X16.836 Y17.105 Z-5.853 F1000
G1 X16.853 Y16.906 Z-5.855 F1000
G1 X16.869 Y16.707 Z-5.856 F1000
G1 X16.882 Y16.508 Z-5.858 F1000
G1 X16.894 Y16.309 Z-5.859 F1000
G1 X16.904 Y16.109 Z-5.861 F1000
G1 X16.912 Y15.910 Z-5.862 F1000
G1 X16.914 Y15.712 Z-5.864 F1000
G1 X16.932 Y5.529 Z-5.939 F1000
G1 X16.931 Y5.430 Z-5.940 F1000
G1 X16.927 Y5.331 Z-5.941 F1000
G1 X16.915 Y5.232 Z-5.941 F1000
G1 X16.903 Y5.133 Z-5.942 F1000
G1 X16.889 Y5.034 Z-5.943 F1000
G1 X16.882 Y4.985 Z-5.943 F1000
G1 X16.871 Y4.937 Z-5.943 F1000
G1 X16.844 Y4.841 Z-5.944 F1000
G1 X16.812 Y4.747 Z-5.945 F1000
G1 X16.745 Y4.561 Z-5.946 F1000
G1 X16.725 Y4.515 Z-5.947 F1000
G1 X16.703 Y4.471 Z-5.947 F1000
G1 X16.657 Y4.383 Z-5.948 F1000
G1 X16.563 Y4.206 Z-5.949 F1000
G1 X16.538 Y4.164 Z-5.950 F1000
G1 X16.510 Y4.122 Z-5.950 F1000
G1 X16.451 Y4.043 Z-5.951 F1000
G1 X16.326 Y3.888 Z-5.952 F1000
G1 X16.294 Y3.851 Z-5.953 F1000
G1 X16.259 Y3.815 Z-5.953 F1000
G1 X16.187 Y3.747 Z-5.954 F1000
G1 X16.038 Y3.615 Z-5.955 F1000
G1 X15.963 Y3.550 Z-5.956 F1000
G1 X15.923 Y3.519 Z-5.956 F1000
G1 X15.883 Y3.491 Z-5.957 F1000
G1 X15.798 Y3.438 Z-5.957 F1000
G1 X15.712 Y3.389 Z-5.958 F1000
G1 X15.537 Y3.295 Z-5.960 F1000
G1 X15.446 Y3.255 Z-5.960 F1000
G1 X15.353 Y3.218 Z-5.961 F1000
G1 X15.259 Y3.184 Z-5.962 F1000
G1 X15.164 Y3.155 Z-5.963 F1000
G1 X15.068 Y3.129 Z-5.963 F1000
G1 X14.971 Y3.108 Z-5.964 F1000
G1 X14.873 Y3.091 Z-5.965 F1000
G1 X14.774 Y3.078 Z-5.966 F1000
G1 X14.576 Y3.065 Z-5.967 F1000
G1 X14.376 Y3.061 Z-5.968 F1000
G1 X10.123 Y3.054 Z-6.000 F1000
G1 X6.933 Y3.048 Z-6.023 F1000
G1 X5.537 Y3.046 Z-6.033 F1000
G1 X5.342 Y3.052 Z-6.034 F1000
G1 X5.243 Y3.061 Z-6.035 F1000
G1 X5.145 Y3.076 Z-6.036 F1000
G1 X4.954 Y3.108 Z-6.037 F1000
G1 X4.858 Y3.129 Z-6.038 F1000
G1 X4.811 Y3.142 Z-6.038 F1000
G1 X4.764 Y3.158 Z-6.039 F1000
G1 X4.583 Y3.229 Z-6.040 F1000
G1 X4.491 Y3.265 Z-6.041 F1000
G1 X4.401 Y3.304 Z-6.041 F1000
G1 X4.315 Y3.350 Z-6.042 F1000
G1 X4.231 Y3.400 Z-6.043 F1000
G1 X4.066 Y3.509 Z-6.044 F1000
G1 X3.989 Y3.567 Z-6.045 F1000
G1 X3.915 Y3.630 Z-6.046 F1000
G1 X3.769 Y3.760 Z-6.047 F1000
G1 X3.698 Y3.828 Z-6.048 F1000
G1 X3.664 Y3.864 Z-6.048 F1000
G1 X3.633 Y3.902 Z-6.048 F1000
G1 X3.516 Y4.060 Z-6.050 F1000
G1 X3.459 Y4.139 Z-6.051 F1000
G1 X3.431 Y4.179 Z-6.051 F1000
G1 X3.406 Y4.221 Z-6.051 F1000
G1 X3.313 Y4.392 Z-6.053 F1000
G1 X3.267 Y4.479 Z-6.053 F1000
G1 X3.224 Y4.568 Z-6.054 F1000
G1 X3.206 Y4.613 Z-6.054 F1000
G1 X3.190 Y4.659 Z-6.055 F1000
G1 X3.161 Y4.753 Z-6.055 F1000
G1 X3.108 Y4.942 Z-6.057 F1000
G1 X3.097 Y4.990 Z-6.057 F1000
G1 X3.088 Y5.038 Z-6.058 F1000
G1 X3.075 Y5.135 Z-6.058 F1000
G1 X3.049 Y5.330 Z-6.060 F1000
G1 X3.044 Y5.379 Z-6.060 F1000
G1 X3.042 Y5.428 Z-6.060 F1000
G1 X3.040 Y5.526 Z-6.061 F1000
G1 X3.038 Y6.323 Z-6.067 F1000
G1 X3.037 Y7.121 Z-6.073 F1000
G1 X3.036 Y7.918 Z-6.078 F1000
G1 X3.035 Y8.716 Z-6.084 F1000
G1 X3.034 Y9.513 Z-6.090 F1000
G1 X3.033 Y10.311 Z-6.095 F1000
G1 X3.032 Y11.108 Z-6.101 F1000
G1 X3.031 Y11.906 Z-6.107 F1000
G1 X3.030 Y12.703 Z-6.113 F1000
G1 X3.029 Y13.500 Z-6.118 F1000
G1 X3.028 Y14.298 Z-6.124 F1000
G1 X3.028 Y15.095 Z-6.130 F1000
G1 X3.027 Y15.694 Z-6.134 F1000
G1 X3.027 Y15.893 Z-6.136 F1000
G1 X3.033 Y16.092 Z-6.137 F1000
G1 X3.040 Y16.291 Z-6.138 F1000
G1 X3.049 Y16.490 Z-6.140 F1000
G1 X3.094 Y17.486 Z-6.147 F1000
G1 X3.103 Y17.685 Z-6.148 F1000
G1 X3.113 Y17.883 Z-6.150 F1000
G1 X3.125 Y18.082 Z-6.151 F1000
G1 X3.138 Y18.281 Z-6.153 F1000
G1 X3.153 Y18.479 Z-6.154 F1000
G1 X3.231 Y19.473 Z-6.161 F1000
G1 X3.246 Y19.671 Z-6.163 F1000
G1 X3.264 Y19.868 Z-6.164 F1000
G1 X3.283 Y20.066 Z-6.166 F1000
G1 X3.304 Y20.264 Z-6.167 F1000
G1 X3.327 Y20.462 Z-6.168 F1000
G1 X3.418 Y21.254 Z-6.174 F1000
G1 X3.441 Y21.450 Z-6.176 F1000
G1 X3.466 Y21.646 Z-6.177 F1000
G1 X3.493 Y21.842 Z-6.178 F1000
G1 X3.523 Y22.038 Z-6.180 F1000
G1 X3.554 Y22.235 Z-6.181 F1000
G1 X3.681 Y23.022 Z-6.187 F1000
G1 X3.714 Y23.215 Z-6.188 F1000
G1 X3.751 Y23.407 Z-6.190 F1000
G1 X3.791 Y23.600 Z-6.191 F1000
G1 X3.877 Y23.989 Z-6.194 F1000
G1 X3.964 Y24.379 Z-6.197 F1000
G1 X4.008 Y24.571 Z-6.198 F1000
G1 X4.055 Y24.751 Z-6.200 F1000
G1 X4.105 Y24.923 Z-6.201 F1000
G1 X4.161 Y25.073 Z-6.202 F1000
G1 X4.188 Y25.141 Z-6.203 F1000
G1 X4.204 Y25.174 Z-6.203 F1000
G1 X4.222 Y25.206 Z-6.203 F1000
G1 X4.288 Y25.316 Z-6.204 F1000
G1 X4.311 Y25.352 Z-6.204 F1000
G1 X4.337 Y25.387 Z-6.205 F1000
G1 X4.364 Y25.420 Z-6.205 F1000
G1 X4.420 Y25.486 Z-6.206 F1000
G1 X4.444 Y25.515 Z-6.206 F1000
G1 X4.470 Y25.542 Z-6.206 F1000
G1 X4.498 Y25.568 Z-6.206 F1000
G1 X4.526 Y25.593 Z-6.207 F1000
G1 X4.587 Y25.645 Z-6.207 F1000
G1 X4.617 Y25.672 Z-6.207 F1000
G1 X4.650 Y25.696 Z-6.208 F1000
G1 X4.687 Y25.720 Z-6.208 F1000
G1 X4.725 Y25.744 Z-6.208 F1000
G1 X4.800 Y25.791 Z-6.209 F1000
G1 X4.868 Y25.827 Z-6.209 F1000
G1 X4.938 Y25.856 Z-6.210 F1000
G1 X5.006 Y25.886 Z-6.210 F1000
G1 X5.076 Y25.910 Z-6.211 F1000
G1 X5.163 Y25.932 Z-6.212 F1000
G1 X5.207 Y25.943 Z-6.212 F1000
G1 X5.250 Y25.953 Z-6.212 F1000
G1 X5.291 Y25.960 Z-6.212 F1000
G1 X5.332 Y25.964 Z-6.213 F1000
G1 X5.415 Y25.971 Z-6.213 F1000
G1 X5.591 Y25.978 Z-6.215 F1000
G1 X5.989 Y25.982 Z-6.217 F1000
G1 X6.388 Y25.986 Z-6.220 F1000
G1 X6.787 Y25.990 Z-6.223 F1000
G1 X7.186 Y25.994 Z-6.226 F1000
G1 X7.584 Y25.998 Z-6.229 F1000
G1 X7.983 Y26.002 Z-6.232 F1000
G1 X8.382 Y26.006 Z-6.235 F1000
G1 X8.781 Y26.010 Z-6.237 F1000
G1 X9.179 Y26.014 Z-6.240 F1000
G1 X9.578 Y26.018 Z-6.243 F1000
G1 X9.977 Y26.022 Z-6.246 F1000
G1 X10.375 Y26.025 Z-6.249 F1000
G1 X10.774 Y26.029 Z-6.252 F1000
G1 X11.173 Y26.033 Z-6.255 F1000
G1 X11.572 Y26.036 Z-6.258 F1000
G1 X11.970 Y26.040 Z-6.260 F1000
G1 X12.369 Y26.043 Z-6.263 F1000
G1 X12.768 Y26.047 Z-6.266 F1000
G1 X13.167 Y26.050 Z-6.269 F1000
G1 X13.565 Y26.054 Z-6.272 F1000
G1 X13.964 Y26.057 Z-6.275 F1000
G1 X14.363 Y26.061 Z-6.278 F1000
G1 X14.549 Y26.060 Z-6.279 F1000
G1 X14.686 Y26.051 Z-6.280 F1000
G1 X14.731 Y26.046 Z-6.280 F1000
G1 X14.774 Y26.040 Z-6.281 F1000
G1 X14.816 Y26.030 Z-6.281 F1000
G1 X14.900 Y26.011 Z-6.281 F1000
G1 X14.940 Y26.001 Z-6.282 F1000
G1 X14.979 Y25.991 Z-6.282 F1000
G1 X15.018 Y25.977 Z-6.282 F1000
G1 X15.056 Y25.962 Z-6.283 F1000
G1 X15.140 Y25.928 Z-6.283 F1000
G1 X15.182 Y25.911 Z-6.283 F1000
G1 X15.223 Y25.891 Z-6.284 F1000
G1 X15.300 Y25.846 Z-6.284 F1000
G1 X15.376 Y25.800 Z-6.285 F1000
G1 X15.411 Y25.778 Z-6.285 F1000
G1 X15.445 Y25.753 Z-6.286 F1000
G1 X15.508 Y25.701 Z-6.286 F1000
G1 X15.573 Y25.647 Z-6.287 F1000
G1 X15.604 Y25.619 Z-6.287 F1000
G1 X15.633 Y25.589 Z-6.287 F1000
G1 X15.665 Y25.553 Z-6.288 F1000
G1 X15.726 Y25.482 Z-6.288 F1000
G1 X15.757 Y25.446 Z-6.289 F1000
G1 X15.782 Y25.412 Z-6.289 F1000
G1 X15.806 Y25.376 Z-6.289 F1000
G1 X15.851 Y25.304 Z-6.290 F1000
G1 X15.895 Y25.231 Z-6.290 F1000
G1 X15.915 Y25.193 Z-6.291 F1000
G1 X15.932 Y25.154 Z-6.291 F1000
G1 X15.966 Y25.073 Z-6.292 F1000
G1 X15.999 Y24.991 Z-6.292 F1000
G1 X16.025 Y24.906 Z-6.293 F1000
G1 X16.046 Y24.820 Z-6.293 F1000
G1 X16.136 Y24.443 Z-6.296 F1000
G1 X16.205 Y24.151 Z-6.298 F1000
G1 X16.228 Y24.054 Z-6.299 F1000
G1 X16.270 Y23.859 Z-6.301 F1000
G1 X16.307 Y23.663 Z-6.302 F1000
G1 X16.341 Y23.468 Z-6.303 F1000
G1 X16.477 Y22.687 Z-6.309 F1000
G1 X16.509 Y22.490 Z-6.311 F1000
G1 X16.538 Y22.293 Z-6.312 F1000
G1 X16.564 Y22.095 Z-6.313 F1000
G1 X16.613 Y21.701 Z-6.316 F1000
G1 X16.687 Y21.110 Z-6.321 F1000
G1 X16.710 Y20.911 Z-6.322 F1000
G1 X16.732 Y20.713 Z-6.323 F1000
G1 X16.751 Y20.515 Z-6.325 F1000
G1 X16.768 Y20.316 Z-6.326 F1000
G1 X16.851 Y19.325 Z-6.333 F1000
G1 X16.867 Y19.126 Z-6.335 F1000
G1 X16.880 Y18.927 Z-6.336 F1000
G1 X16.892 Y18.728 Z-6.338 F1000
G1 X16.902 Y18.529 Z-6.339 F1000
G1 X16.951 Y17.534 Z-6.346 F1000
G1 X16.960 Y17.335 Z-6.348 F1000
G1 X16.968 Y17.135 Z-6.349 F1000
G1 X16.974 Y16.936 Z-6.351 F1000
G1 X16.978 Y16.737 Z-6.352 F1000
G1 X16.981 Y16.537 Z-6.353 F1000
G1 X16.991 Y15.939 Z-6.358 F1000
G1 X16.992 Y15.740 Z-6.359 F1000
G1 X16.997 Y6.370 Z-6.427 F1000
G1 X16.998 Y5.572 Z-6.432 F1000
G1 X16.991 Y5.373 Z-6.434 F1000
G1 X16.975 Y5.174 Z-6.435 F1000
G1 X16.970 Y5.125 Z-6.435 F1000
G1 X16.962 Y5.076 Z-6.436 F1000
G1 X16.940 Y4.979 Z-6.437 F1000
G1 X16.893 Y4.785 Z-6.438 F1000
G1 X16.880 Y4.737 Z-6.438 F1000
G1 X16.864 Y4.690 Z-6.439 F1000
G1 X16.826 Y4.597 Z-6.439 F1000
G1 X16.749 Y4.414 Z-6.441 F1000
G1 X16.727 Y4.369 Z-6.441 F1000
G1 X16.704 Y4.325 Z-6.442 F1000
G1 X16.653 Y4.239 Z-6.442 F1000
G1 X16.548 Y4.070 Z-6.444 F1000
G1 X16.490 Y3.989 Z-6.444 F1000
G1 X16.428 Y3.911 Z-6.445 F1000
G1 X16.295 Y3.762 Z-6.447 F1000
G1 X16.260 Y3.727 Z-6.447 F1000
G1 X16.224 Y3.693 Z-6.447 F1000
G1 X16.148 Y3.628 Z-6.448 F1000
G1 X15.996 Y3.499 Z-6.449 F1000
